;TYPE:CUSTOM
T0
M92 E865.888000
M109 S225.000000
;Sliced Multiple files at: Sat 29 Dec 2012 15:55:11
;Basic settings: Layer height: 0.2 Walls: 0.8 Fill: 20
;Print time:     0:05
;Filament used:     0.08m     0.60g
;Filament cost:  Unknown
M92 X79.1359 Y79.1359 Z492.307 E810.0
G21        ;metric values
G90        ;absolute positioning
M107       ;start with the fan off
G28 X0 Y0  ;move X/Y to min endstops
G28 Z0     ;move Z to min endstops
G92 X0 Y0 Z0 E0         ;reset software position to front/left/z=0.0
G1 Z15.0 F180 ;move the platform down 15mm
G92 E0                  ;zero the extruded length
G1 F200 E3              ;extrude 3mm of feed stock
G92 E0                  ;zero the extruded length again
;go to the middle of the platform (disabled, as there is no need to go to the center)
;G1 X?machine_center_x? Y?machine_center_y? F10200
G1 F10200;PRINTNR:0
;LAYER:0
;TYPE:SKIRT
G1 X110.284 Y72.837 Z0.3 F10200.0
G1 X110.805 Y80.038 F1800.0 E0.1583
G1 X111.07 Y81.777 E0.1968
G1 X113.314 Y90.675 E0.398
G1 X113.781 Y92.352 E0.4362
G1 X114.959 Y94.049 E0.4815
G1 X118.436 Y95.096 E0.5611
G1 X121.107 Y92.831 E0.6379
G1 X121.705 Y90.687 E0.6866
G1 X123.919 Y81.997 E0.8832
G1 X124.216 Y80.038 E0.9267
G1 X124.738 Y72.839 E1.0849
G1 X124.547 Y71.067 E1.124
G1 X123.596 Y68.884 E1.1762
G1 X122.407 Y67.467 E1.2167
G1 X120.369 Y66.156 E1.2699
G1 X119.011 Y65.702 E1.3012
G1 X115.191 Y65.937 E1.3851
G1 X113.622 Y66.722 E1.4236
G1 X112.212 Y67.888 E1.4637
G1 X111.238 Y69.163 E1.4989
G1 X110.474 Y71.084 E1.5442
G1 X110.284 Y72.837 E1.5829
G1 X110.686 Y72.833 F10200.0
G1 X111.209 Y80.034 F1800.0 E1.7411
G1 X111.458 Y81.669 E1.7774
G1 X113.721 Y90.645 E1.9803
G1 X114.148 Y92.18 E2.0153
G1 X115.208 Y93.707 E2.056
G1 X118.343 Y94.651 E2.1278
G1 X120.755 Y92.605 E2.1971
G1 X121.298 Y90.655 E2.2415
G1 X123.534 Y81.864 E2.4403
G1 X123.813 Y80.034 E2.4809
G1 X124.335 Y72.834 E2.6392
G1 X124.156 Y71.171 E2.6758
G1 X123.253 Y69.097 E2.7254
G1 X122.139 Y67.771 E2.7634
G1 X120.195 Y66.519 E2.8141
G1 X118.944 Y66.101 E2.843
G1 X115.325 Y66.317 E2.9225
G1 X113.842 Y67.059 E2.9588
G1 X112.502 Y68.167 E2.9969
G1 X111.589 Y69.362 E3.0299
G1 X110.866 Y71.181 E3.0728
G1 X110.686 Y72.833 E3.1092
G1 X118.56 Y72.833 F10200.0
G1 X115.922 Y81.532
G1 X117.438 Y86.119 F3400.0
G1 X117.437 Y86.052 F1800.0 E3.1107
G1 X117.264 Y83.634 E3.1638
G1 X116.904 Y82.679 E3.1862
G1 X116.393 Y82.527 E3.1979
G1 X115.901 Y82.281 E3.2099
G1 X115.412 Y81.893 E3.2236
G1 X115.005 Y81.343 E3.2386
G1 X114.731 Y80.685 E3.2543
G1 X114.64 Y79.98 E3.2699
G1 X114.731 Y79.274 E3.2854
G1 X115.009 Y78.609 E3.3013
G1 X115.263 Y78.194 E3.3119
G1 X115.457 Y78.157 E3.3162
G1 X115.648 Y78.239 E3.3208
G1 X116.106 Y78.18 E3.3309
G1 X116.445 Y77.664 E3.3444
G1 X116.63 Y76.826 E3.3633
G1 X116.655 Y75.632 E3.3894
G1 X116.573 Y74.531 E3.4136
G1 X116.4 Y73.915 E3.4277
G1 X115.99 Y73.734 E3.4375
G1 X115.443 Y73.847 E3.4497
G1 X114.938 Y74.162 E3.4628
G1 X114.771 Y74.522 E3.4715
G1 X114.651 Y74.546 E3.4742
G1 X114.542 Y74.372 E3.4787
G1 X114.211 Y73.578 E3.4975
G1 X114.102 Y72.733 E3.5162
G1 X114.211 Y71.888 E3.5349
G1 X114.539 Y71.102 E3.5535
G1 X115.055 Y70.425 E3.5722
G1 X115.739 Y69.903 E3.5911
G1 X116.376 Y69.573 E3.6068
G1 X116.732 Y69.47 E3.6149
G1 X118.29 Y69.47 E3.6491
G1 X118.646 Y69.573 E3.6572
G1 X119.283 Y69.903 E3.6729
G1 X119.966 Y70.425 E3.6918
G1 X120.483 Y71.102 E3.7105
G1 X120.811 Y71.888 E3.7291
G1 X120.92 Y72.733 E3.7478
G1 X120.811 Y73.578 E3.7665
G1 X120.48 Y74.372 E3.7853
G1 X120.371 Y74.546 E3.7898
G1 X120.251 Y74.522 E3.7925
G1 X120.083 Y74.162 E3.8012
G1 X119.579 Y73.847 E3.8143
G1 X119.031 Y73.734 E3.8265
G1 X118.622 Y73.915 E3.8363
G1 X118.449 Y74.531 E3.8504
G1 X118.367 Y75.632 E3.8746
G1 X118.392 Y76.826 E3.9007
G1 X118.577 Y77.664 E3.9196
G1 X118.916 Y78.18 E3.9331
G1 X119.374 Y78.239 E3.9432
G1 X119.565 Y78.157 E3.9478
G1 X119.758 Y78.194 E3.9521
G1 X120.013 Y78.609 E3.9627
G1 X120.291 Y79.274 E3.9785
G1 X120.382 Y79.98 E3.9941
G1 X120.291 Y80.685 E4.0097
G1 X120.016 Y81.343 E4.0254
G1 X119.61 Y81.893 E4.0404
G1 X119.12 Y82.281 E4.0541
G1 X118.629 Y82.527 E4.0661
G1 X118.118 Y82.679 E4.0778
G1 X117.758 Y83.634 E4.1002
G1 X117.585 Y86.052 E4.1533
G1 X117.568 Y88.513 E4.2073
G1 X117.722 Y89.563 E4.2305
G1 X117.863 Y89.915 E4.2388
G1 X117.849 Y90.367 E4.2488
G1 X117.74 Y90.759 E4.2577
G1 X117.63 Y90.877 E4.2612
G1 X117.511 Y90.897 E4.2639
G1 X117.392 Y90.877 E4.2665
G1 X117.282 Y90.759 E4.27
G1 X117.173 Y90.367 E4.279
G1 X117.159 Y89.915 E4.2889
G1 X117.3 Y89.563 E4.2972
G1 X117.454 Y88.513 E4.3204
G1 X117.453 Y88.455 E4.3217
;TYPE:WALL-INNER
G1 X117.361 Y82.757 F3400.0
G1 X117.209 Y82.353 F1800.0 E4.3312
G1 X116.54 Y82.154 E4.3465
G1 X116.118 Y81.942 E4.3568
G1 X115.702 Y81.613 E4.3685
G1 X115.356 Y81.144 E4.3812
G1 X115.121 Y80.58 E4.3946
G1 X115.043 Y79.98 E4.4079
G1 X115.121 Y79.379 E4.4212
G1 X115.326 Y78.887 E4.4329
G1 X115.779 Y78.625 E4.4443
G1 X116.339 Y78.553 E4.4567
G1 X116.82 Y77.822 E4.4759
G1 X117.029 Y76.874 E4.4972
G1 X117.055 Y75.622 E4.5246
G1 X116.969 Y74.461 E4.5501
G1 X116.734 Y73.626 E4.5692
G1 X116.035 Y73.317 E4.5859
G1 X115.292 Y73.47 E4.6025
G1 X114.967 Y73.672 E4.6109
G1 X114.587 Y73.367 E4.6216
G1 X114.505 Y72.733 E4.6356
G1 X114.601 Y71.993 E4.652
G1 X114.888 Y71.304 E4.6684
G1 X115.341 Y70.711 E4.6847
G1 X115.954 Y70.242 E4.7016
G1 X116.525 Y69.946 E4.7157
G1 X116.789 Y69.87 E4.7218
G1 X118.233 Y69.87 E4.7534
G1 X118.497 Y69.946 E4.7594
G1 X119.067 Y70.242 E4.7735
G1 X119.681 Y70.711 E4.7904
G1 X120.134 Y71.304 E4.8068
G1 X120.421 Y71.993 E4.8232
G1 X120.517 Y72.733 E4.8395
G1 X120.435 Y73.367 E4.8535
G1 X120.054 Y73.672 E4.8642
G1 X119.73 Y73.47 E4.8726
G1 X118.987 Y73.317 E4.8893
G1 X118.288 Y73.626 E4.906
G1 X118.053 Y74.461 E4.925
G1 X117.967 Y75.622 E4.9505
G1 X117.993 Y76.874 E4.978
G1 X118.202 Y77.822 E4.9993
G1 X118.683 Y78.553 E5.0185
G1 X119.243 Y78.625 E5.0308
G1 X119.696 Y78.887 E5.0423
G1 X119.901 Y79.379 E5.054
G1 X119.979 Y79.98 E5.0673
G1 X119.901 Y80.58 E5.0805
G1 X119.666 Y81.144 E5.0939
G1 X119.32 Y81.613 E5.1067
G1 X118.904 Y81.942 E5.1183
G1 X118.481 Y82.154 E5.1287
G1 X117.813 Y82.352 E5.144
G1 X117.661 Y82.757 E5.1534
G1 X117.361 Y82.757 E5.16
;TYPE:FILL
G1 X118.337 Y70.254 F3400.0
G1 X120.036 Y71.953 F1800.0 E5.2127
G1 X120.163 Y72.645 E5.2281
G1 X117.728 Y70.21 E5.3036
G1 X117.162 Y70.21 E5.316
G1 X120.115 Y73.163 E5.4076
G1 X119.431 Y73.045 E5.4228
G1 X116.65 Y70.264 E5.509
G1 X116.278 Y70.457 E5.5182
G1 X118.833 Y73.013 E5.5975
G1 X118.441 Y73.186 E5.6069
G1 X115.938 Y70.683 E5.6845
G1 X115.617 Y70.928 E5.6933
G1 X118.049 Y73.36 E5.7687
G1 X117.894 Y73.77 E5.7783
G1 X115.364 Y71.241 E5.8568
G1 X115.14 Y71.582 E5.8657
G1 X117.77 Y74.212 E5.9473
G1 X117.694 Y74.702 E5.9581
G1 X117.27 Y74.278 E5.9713
G1 X117.344 Y74.917 E5.9854
G1 X117.655 Y75.229 E5.995
G1 X117.389 Y75.528 E6.0038
G1 X117.63 Y75.769 E6.0113
G1 X117.385 Y76.09 E6.0201
G1 X117.642 Y76.347 E6.0281
G1 X117.374 Y76.644 E6.0369
G1 X117.657 Y76.927 E6.0456
G1 X117.316 Y77.152 E6.0546
G1 X117.817 Y77.653 E6.0701
G1 X117.213 Y77.615 E6.0834
G1 X119.629 Y80.031 E6.1583
G1 X119.556 Y80.524 E6.1692
G1 X117.079 Y78.047 E6.246
G1 X116.855 Y78.388 E6.2549
G1 X119.39 Y80.923 E6.3335
G1 X119.159 Y81.258 E6.3425
G1 X116.63 Y78.729 E6.4209
G1 X116.243 Y78.908 E6.4302
G1 X118.87 Y81.535 E6.5117
G1 X118.522 Y81.753 E6.5207
G1 X115.784 Y79.015 E6.6055
G1 X115.517 Y79.313 E6.6143
G1 X118.112 Y81.909 E6.6948
G1 X117.651 Y82.013 E6.7052
G1 X115.413 Y79.774 E6.7746
G1 X115.436 Y80.363 E6.7875
G1 X117.012 Y81.939 E6.8363
G1 X119.525 Y79.362 F3400.0
G1 X119.115 Y78.951 F1800.0 E6.8491
G1 X115.972 Y72.98 F3400.0
G1 X114.974 Y71.982 F1800.0 E6.88
G1 X114.883 Y72.457 E6.8906
G1 X115.489 Y73.063 E6.9094
G1 X115.007 Y73.146 E6.9201
G1 X114.886 Y73.025 E6.9239
G92 E0
;LAYER:1
M106 S255
;TYPE:WALL-INNER
G1 X115.341 Y70.711 Z0.5 F5666.6667
G1 X115.954 Y70.242 F1084.258 E0.0113
G1 X116.525 Y69.946 E0.0207
G1 X116.789 Y69.87 E0.0247
G1 X118.233 Y69.87 E0.0458
G1 X118.497 Y69.946 E0.0498
G1 X119.067 Y70.242 E0.0592
G1 X119.681 Y70.711 E0.0705
G1 X120.134 Y71.304 E0.0814
G1 X120.421 Y71.993 E0.0923
G1 X120.517 Y72.733 E0.1032
G1 X120.435 Y73.367 E0.1125
G1 X120.054 Y73.672 E0.1197
G1 X119.73 Y73.47 E0.1253
G1 X118.987 Y73.317 E0.1364
G1 X118.288 Y73.626 E0.1475
G1 X118.053 Y74.461 E0.1602
G1 X117.967 Y75.622 E0.1772
G1 X117.993 Y76.874 E0.1955
G1 X118.202 Y77.822 E0.2097
G1 X118.683 Y78.553 E0.2225
G1 X119.243 Y78.625 E0.2307
G1 X119.696 Y78.887 E0.2384
G1 X119.901 Y79.379 E0.2462
G1 X119.979 Y79.98 E0.255
G1 X119.901 Y80.58 E0.2639
G1 X119.666 Y81.144 E0.2728
G1 X119.32 Y81.613 E0.2813
G1 X118.903 Y81.943 E0.2891
G1 X118.482 Y82.156 E0.296
G1 X117.828 Y82.359 E0.306
G1 X117.688 Y82.759 E0.3122
G1 X117.334 Y82.759 E0.3174
G1 X117.194 Y82.359 E0.3235
G1 X116.539 Y82.156 E0.3336
G1 X116.118 Y81.943 E0.3405
G1 X115.702 Y81.613 E0.3482
G1 X115.356 Y81.144 E0.3567
G1 X115.121 Y80.58 E0.3657
G1 X115.043 Y79.98 E0.3745
G1 X115.121 Y79.379 E0.3834
G1 X115.326 Y78.887 E0.3911
G1 X115.779 Y78.625 E0.3988
G1 X116.339 Y78.553 E0.4071
G1 X116.82 Y77.822 E0.4198
G1 X117.029 Y76.874 E0.434
G1 X117.055 Y75.622 E0.4523
G1 X116.969 Y74.461 E0.4693
G1 X116.734 Y73.626 E0.482
G1 X116.035 Y73.317 E0.4932
G1 X115.292 Y73.47 E0.5043
G1 X114.967 Y73.672 E0.5099
G1 X114.587 Y73.367 E0.517
G1 X114.505 Y72.733 E0.5263
G1 X114.601 Y71.993 E0.5372
G1 X114.888 Y71.304 E0.5481
G1 X115.341 Y70.711 E0.559
;TYPE:WALL-OUTER
G1 X115.055 Y70.425 F5666.6667
G1 X115.739 Y69.903 F1084.258 E0.5716
G1 X116.376 Y69.573 E0.5821
G1 X116.732 Y69.47 E0.5875
G1 X118.29 Y69.47 E0.6103
G1 X118.646 Y69.573 E0.6157
G1 X119.283 Y69.903 E0.6262
G1 X119.966 Y70.425 E0.6388
G1 X120.483 Y71.102 E0.6512
G1 X120.811 Y71.888 E0.6637
G1 X120.92 Y72.733 E0.6761
G1 X120.811 Y73.578 E0.6885
G1 X120.38 Y74.54 E0.7039
G1 X120.249 Y74.518 E0.7059
G1 X120.083 Y74.162 E0.7116
G1 X119.579 Y73.847 E0.7203
G1 X119.031 Y73.734 E0.7285
G1 X118.622 Y73.915 E0.735
G1 X118.449 Y74.531 E0.7444
G1 X118.367 Y75.632 E0.7605
G1 X118.392 Y76.826 E0.778
G1 X118.577 Y77.664 E0.7905
G1 X118.916 Y78.18 E0.7995
G1 X119.374 Y78.239 E0.8063
G1 X119.565 Y78.157 E0.8093
G1 X119.758 Y78.194 E0.8122
G1 X120.013 Y78.609 E0.8193
G1 X120.291 Y79.274 E0.8298
G1 X120.382 Y79.98 E0.8402
G1 X120.291 Y80.685 E0.8506
G1 X120.016 Y81.343 E0.861
G1 X119.61 Y81.893 E0.871
G1 X119.12 Y82.281 E0.8802
G1 X118.633 Y82.528 E0.8882
G1 X118.139 Y82.682 E0.8957
G1 X117.805 Y83.637 E0.9105
G1 X117.64 Y86.052 E0.9459
G1 X117.615 Y88.511 E0.9818
G1 X117.745 Y89.556 E0.9972
G1 X117.869 Y89.91 E1.0027
G1 X117.849 Y90.366 E1.0094
G1 X117.74 Y90.759 E1.0153
G1 X117.63 Y90.877 E1.0177
G1 X117.511 Y90.897 E1.0194
G1 X117.392 Y90.877 E1.0212
G1 X117.282 Y90.759 E1.0236
G1 X117.172 Y90.366 E1.0295
G1 X117.153 Y89.91 E1.0362
G1 X117.277 Y89.556 E1.0417
G1 X117.407 Y88.511 E1.0571
G1 X117.382 Y86.052 E1.093
G1 X117.217 Y83.637 E1.1284
G1 X116.883 Y82.682 E1.1432
G1 X116.389 Y82.528 E1.1507
G1 X115.902 Y82.281 E1.1587
G1 X115.412 Y81.893 E1.1678
G1 X115.005 Y81.343 E1.1778
G1 X114.731 Y80.685 E1.1883
G1 X114.64 Y79.98 E1.1987
G1 X114.731 Y79.274 E1.209
G1 X115.009 Y78.609 E1.2196
G1 X115.263 Y78.194 E1.2267
G1 X115.457 Y78.157 E1.2296
G1 X115.648 Y78.239 E1.2326
G1 X116.106 Y78.18 E1.2394
G1 X116.445 Y77.664 E1.2484
G1 X116.63 Y76.826 E1.2609
G1 X116.655 Y75.632 E1.2784
G1 X116.573 Y74.531 E1.2945
G1 X116.4 Y73.915 E1.3038
G1 X115.99 Y73.734 E1.3104
G1 X115.443 Y73.847 E1.3186
G1 X114.938 Y74.162 E1.3273
G1 X114.773 Y74.518 E1.333
G1 X114.641 Y74.54 E1.3349
G1 X114.211 Y73.578 E1.3504
G1 X114.102 Y72.733 E1.3628
G1 X114.211 Y71.888 E1.3752
G1 X114.539 Y71.102 E1.3877
G1 X115.055 Y70.425 E1.4001
;TYPE:FILL
G1 X115.173 Y71.503 F5666.6667
G1 X116.155 Y70.521 F1084.258 E1.4204
G1 X119.433 Y80.82 F5666.6667
G1 X118.474 Y81.779 F1084.258 E1.4402
G1 X117.668 Y82.019 E1.4525
G1 X119.625 Y80.062 E1.493
G1 X119.579 Y79.542 E1.5006
G1 X117.136 Y81.985 E1.5511
G1 X116.704 Y81.851 E1.5577
G1 X119.428 Y79.128 E1.614
G1 X119.047 Y78.943 E1.6202
G1 X116.324 Y81.666 E1.6765
G1 X116.005 Y81.419 E1.6824
G1 X118.546 Y78.878 E1.7349
G1 X118.288 Y78.571 E1.7407
G1 X115.751 Y81.107 E1.7932
G1 X115.555 Y80.738 E1.7993
G1 X118.063 Y78.23 E1.8511
G1 X117.863 Y77.864 E1.8572
G1 X115.427 Y80.3 E1.9076
G1 X115.416 Y79.745 E1.9157
G1 X117.761 Y77.4 E1.9641
G1 X117.659 Y76.937 E1.9711
G1 X117.279 Y77.317 E1.9789
G1 X117.373 Y76.657 E1.9886
G1 X117.643 Y76.387 E1.9942
G1 X117.386 Y76.079 E2.0001
G1 X117.631 Y75.833 E2.0051
G1 X117.388 Y75.511 E2.011
G1 X117.654 Y75.245 E2.0165
G1 X117.349 Y74.984 E2.0224
G1 X117.7 Y74.633 E2.0297
G1 X117.309 Y74.458 E2.0359
G1 X117.854 Y73.914 E2.0472
G1 X117.194 Y74.007 E2.0569
G1 X119.789 Y71.413 E2.1105
G1 X119.544 Y71.092 E2.1164
G1 X117.07 Y73.566 E2.1676
G1 X116.791 Y73.279 E2.1734
G1 X119.256 Y70.814 E2.2243
G1 X118.935 Y70.569 E2.2302
G1 X116.399 Y73.106 E2.2827
G1 X115.957 Y72.982 E2.2894
G1 X118.571 Y70.368 E2.3434
G1 X118.163 Y70.21 E2.3498
G1 X115.273 Y73.1 E2.4095
G1 X114.874 Y72.934 E2.4159
G1 X117.598 Y70.21 E2.4722
G1 X117.032 Y70.21 E2.4804
G1 X114.898 Y72.344 E2.5245
G1 X118.692 Y73.076 F5666.6667
G1 X119.971 Y71.796 F1084.258 E2.551
G1 X120.108 Y72.225 E2.5575
G1 X119.309 Y73.024 E2.574
G1 X119.791 Y73.107 E2.5812
G1 X120.173 Y72.726 E2.5891
G92 E0
;LAYER:2
;TYPE:WALL-INNER
G1 X115.341 Y70.711 Z0.7 F7933.3333
G1 X115.954 Y70.242 F1075.1724 E0.0113
G1 X116.525 Y69.946 E0.0207
G1 X116.789 Y69.87 E0.0247
G1 X118.233 Y69.87 E0.0458
G1 X118.497 Y69.946 E0.0498
G1 X119.067 Y70.242 E0.0592
G1 X119.681 Y70.711 E0.0705
G1 X120.134 Y71.304 E0.0814
G1 X120.421 Y71.993 E0.0923
G1 X120.517 Y72.733 E0.1032
G1 X120.435 Y73.367 E0.1126
G1 X120.054 Y73.672 E0.1197
G1 X119.73 Y73.47 E0.1253
G1 X118.987 Y73.317 E0.1364
G1 X118.288 Y73.626 E0.1475
G1 X118.053 Y74.461 E0.1602
G1 X117.967 Y75.622 E0.1772
G1 X117.993 Y76.874 E0.1955
G1 X118.202 Y77.822 E0.2097
G1 X118.683 Y78.553 E0.2225
G1 X119.243 Y78.625 E0.2308
G1 X119.696 Y78.887 E0.2384
G1 X119.901 Y79.379 E0.2462
G1 X119.979 Y79.98 E0.255
G1 X119.901 Y80.58 E0.2639
G1 X119.666 Y81.144 E0.2728
G1 X119.32 Y81.613 E0.2813
G1 X118.902 Y81.944 E0.2891
G1 X118.483 Y82.159 E0.296
G1 X117.847 Y82.369 E0.3058
G1 X117.571 Y83.241 E0.3192
G1 X117.451 Y83.241 E0.3209
G1 X117.175 Y82.369 E0.3343
G1 X116.538 Y82.159 E0.3441
G1 X116.12 Y81.944 E0.3509
G1 X115.702 Y81.613 E0.3587
G1 X115.356 Y81.144 E0.3673
G1 X115.121 Y80.58 E0.3762
G1 X115.043 Y79.98 E0.385
G1 X115.121 Y79.379 E0.3939
G1 X115.326 Y78.887 E0.4017
G1 X115.779 Y78.625 E0.4093
G1 X116.339 Y78.553 E0.4176
G1 X116.82 Y77.822 E0.4304
G1 X117.029 Y76.874 E0.4445
G1 X117.055 Y75.622 E0.4629
G1 X116.969 Y74.461 E0.4799
G1 X116.734 Y73.626 E0.4925
G1 X116.035 Y73.317 E0.5037
G1 X115.292 Y73.47 E0.5148
G1 X114.967 Y73.672 E0.5204
G1 X114.587 Y73.367 E0.5275
G1 X114.505 Y72.733 E0.5369
G1 X114.601 Y71.993 E0.5478
G1 X114.888 Y71.304 E0.5587
G1 X115.341 Y70.711 E0.5696
;TYPE:WALL-OUTER
G1 X115.055 Y70.425 F7933.3333
G1 X115.739 Y69.903 F1075.1724 E0.5822
G1 X116.376 Y69.573 E0.5926
G1 X116.732 Y69.47 E0.5981
G1 X118.29 Y69.47 E0.6208
G1 X118.646 Y69.573 E0.6262
G1 X119.283 Y69.903 E0.6367
G1 X119.966 Y70.425 E0.6493
G1 X120.483 Y71.102 E0.6617
G1 X120.811 Y71.888 E0.6742
G1 X120.92 Y72.733 E0.6866
G1 X120.811 Y73.578 E0.6991
G1 X120.48 Y74.372 E0.7117
G1 X120.371 Y74.546 E0.7147
G1 X120.251 Y74.522 E0.7165
G1 X120.083 Y74.162 E0.7223
G1 X119.579 Y73.847 E0.731
G1 X119.031 Y73.734 E0.7391
G1 X118.622 Y73.915 E0.7457
G1 X118.449 Y74.531 E0.755
G1 X118.367 Y75.632 E0.7712
G1 X118.392 Y76.826 E0.7886
G1 X118.577 Y77.664 E0.8012
G1 X118.916 Y78.18 E0.8102
G1 X119.374 Y78.239 E0.8169
G1 X119.565 Y78.157 E0.8199
G1 X119.758 Y78.194 E0.8228
G1 X120.013 Y78.609 E0.8299
G1 X120.291 Y79.274 E0.8405
G1 X120.382 Y79.98 E0.8509
G1 X120.291 Y80.685 E0.8613
G1 X120.016 Y81.343 E0.8717
G1 X119.61 Y81.893 E0.8817
G1 X119.12 Y82.282 E0.8908
G1 X118.638 Y82.529 E0.8987
G1 X118.166 Y82.685 E0.906
G1 X117.864 Y83.641 E0.9207
G1 X117.71 Y86.052 E0.956
G1 X117.675 Y88.508 E0.9919
G1 X117.775 Y89.547 E1.0071
G1 X117.876 Y89.902 E1.0125
G1 X117.85 Y90.365 E1.0193
G1 X117.74 Y90.759 E1.0253
G1 X117.63 Y90.877 E1.0276
G1 X117.511 Y90.897 E1.0294
G1 X117.392 Y90.877 E1.0312
G1 X117.282 Y90.759 E1.0335
G1 X117.172 Y90.365 E1.0395
G1 X117.146 Y89.902 E1.0463
G1 X117.247 Y89.547 E1.0517
G1 X117.347 Y88.508 E1.0669
G1 X117.312 Y86.052 E1.1028
G1 X117.158 Y83.641 E1.1381
G1 X116.856 Y82.685 E1.1528
G1 X116.383 Y82.529 E1.1601
G1 X115.902 Y82.282 E1.168
G1 X115.412 Y81.893 E1.1771
G1 X115.005 Y81.343 E1.1871
G1 X114.731 Y80.685 E1.1975
G1 X114.64 Y79.98 E1.2079
G1 X114.731 Y79.274 E1.2183
G1 X115.009 Y78.609 E1.2288
G1 X115.263 Y78.194 E1.236
G1 X115.457 Y78.157 E1.2388
G1 X115.648 Y78.239 E1.2419
G1 X116.106 Y78.18 E1.2486
G1 X116.445 Y77.664 E1.2576
G1 X116.63 Y76.826 E1.2702
G1 X116.655 Y75.632 E1.2876
G1 X116.573 Y74.531 E1.3038
G1 X116.4 Y73.915 E1.3131
G1 X115.99 Y73.734 E1.3197
G1 X115.443 Y73.847 E1.3278
G1 X114.938 Y74.162 E1.3365
G1 X114.771 Y74.522 E1.3423
G1 X114.651 Y74.546 E1.3441
G1 X114.542 Y74.372 E1.3471
G1 X114.211 Y73.578 E1.3597
G1 X114.102 Y72.733 E1.3721
G1 X114.211 Y71.888 E1.3846
G1 X114.539 Y71.102 E1.397
G1 X115.055 Y70.425 E1.4095
;TYPE:FILL
G1 X115.972 Y72.98 F7933.3333
G1 X114.974 Y71.982 F1075.1724 E1.4301
G1 X114.883 Y72.457 E1.4372
G1 X115.489 Y73.063 E1.4497
G1 X115.007 Y73.146 E1.4569
G1 X114.886 Y73.025 E1.4594
G1 X118.337 Y70.254 F7933.3333
G1 X120.036 Y71.953 F1075.1724 E1.4945
G1 X120.163 Y72.645 E1.5048
G1 X117.728 Y70.21 E1.5551
G1 X117.162 Y70.21 E1.5634
G1 X120.115 Y73.163 E1.6244
G1 X119.431 Y73.045 E1.6346
G1 X116.65 Y70.264 E1.692
G1 X116.278 Y70.457 E1.6982
G1 X118.833 Y73.013 E1.751
G1 X118.441 Y73.186 E1.7573
G1 X115.938 Y70.683 E1.809
G1 X115.617 Y70.928 E1.8149
G1 X118.049 Y73.36 E1.8652
G1 X117.894 Y73.77 E1.8716
G1 X115.364 Y71.241 E1.9239
G1 X115.14 Y71.582 E1.9298
G1 X117.77 Y74.212 E1.9842
G1 X117.694 Y74.702 E1.9914
G1 X117.27 Y74.278 E2.0002
G1 X117.344 Y74.917 E2.0096
G1 X117.655 Y75.229 E2.0161
G1 X117.389 Y75.528 E2.0219
G1 X117.63 Y75.769 E2.0269
G1 X117.385 Y76.09 E2.0328
G1 X117.642 Y76.347 E2.0381
G1 X117.374 Y76.644 E2.0439
G1 X117.657 Y76.927 E2.0498
G1 X117.316 Y77.152 E2.0558
G1 X117.817 Y77.653 E2.0661
G1 X117.213 Y77.615 E2.0749
G1 X119.629 Y80.031 E2.1249
G1 X119.556 Y80.524 E2.1322
G1 X117.079 Y78.047 E2.1834
G1 X116.855 Y78.388 E2.1893
G1 X119.39 Y80.923 E2.2417
G1 X119.159 Y81.258 E2.2477
G1 X116.63 Y78.729 E2.2999
G1 X116.243 Y78.908 E2.3062
G1 X118.87 Y81.535 E2.3605
G1 X118.525 Y81.755 E2.3665
G1 X115.784 Y79.015 E2.4231
G1 X115.517 Y79.313 E2.429
G1 X118.123 Y81.92 E2.4828
G1 X117.667 Y82.029 E2.4897
G1 X115.413 Y79.774 E2.5363
G1 X115.436 Y80.363 E2.5449
G1 X117.038 Y81.966 E2.578
G1 X119.525 Y79.362 F7933.3333
G1 X119.115 Y78.951 F1075.1724 E2.5865
G92 E0
;LAYER:3
;TYPE:WALL-INNER
G1 X115.341 Y70.711 Z0.9 F10200.0
G1 X115.954 Y70.242 F1067.2181 E0.0113
G1 X116.525 Y69.946 E0.0207
G1 X116.789 Y69.87 E0.0247
G1 X118.233 Y69.87 E0.0458
G1 X118.497 Y69.946 E0.0498
G1 X119.067 Y70.242 E0.0592
G1 X119.681 Y70.711 E0.0705
G1 X120.134 Y71.304 E0.0814
G1 X120.421 Y71.993 E0.0923
G1 X120.517 Y72.733 E0.1032
G1 X120.435 Y73.367 E0.1126
G1 X120.054 Y73.672 E0.1197
G1 X119.73 Y73.47 E0.1253
G1 X118.987 Y73.317 E0.1364
G1 X118.288 Y73.626 E0.1476
G1 X118.053 Y74.461 E0.1602
G1 X117.967 Y75.622 E0.1772
G1 X117.993 Y76.874 E0.1956
G1 X118.202 Y77.822 E0.2098
G1 X118.683 Y78.553 E0.2225
G1 X119.243 Y78.625 E0.2308
G1 X119.696 Y78.887 E0.2384
G1 X119.901 Y79.379 E0.2462
G1 X119.979 Y79.98 E0.2551
G1 X119.901 Y80.58 E0.2639
G1 X119.666 Y81.144 E0.2729
G1 X119.32 Y81.613 E0.2814
G1 X118.9 Y81.945 E0.2892
G1 X118.484 Y82.163 E0.2961
G1 X117.868 Y82.383 E0.3056
G1 X117.631 Y83.247 E0.3187
G1 X117.391 Y83.247 E0.3222
G1 X117.153 Y82.383 E0.3353
G1 X116.538 Y82.163 E0.3449
G1 X116.121 Y81.945 E0.3518
G1 X115.702 Y81.613 E0.3596
G1 X115.356 Y81.144 E0.3681
G1 X115.121 Y80.58 E0.377
G1 X115.043 Y79.98 E0.3859
G1 X115.121 Y79.379 E0.3947
G1 X115.326 Y78.887 E0.4025
G1 X115.779 Y78.625 E0.4102
G1 X116.339 Y78.553 E0.4184
G1 X116.82 Y77.822 E0.4312
G1 X117.029 Y76.874 E0.4454
G1 X117.055 Y75.622 E0.4637
G1 X116.969 Y74.461 E0.4807
G1 X116.734 Y73.626 E0.4934
G1 X116.035 Y73.317 E0.5046
G1 X115.292 Y73.47 E0.5157
G1 X114.967 Y73.672 E0.5212
G1 X114.587 Y73.367 E0.5284
G1 X114.505 Y72.733 E0.5377
G1 X114.601 Y71.993 E0.5486
G1 X114.888 Y71.304 E0.5595
G1 X115.341 Y70.711 E0.5704
;TYPE:WALL-OUTER
G1 X115.055 Y70.425 F10200.0
G1 X115.739 Y69.903 F1067.2181 E0.583
G1 X116.376 Y69.573 E0.5935
G1 X116.732 Y69.47 E0.5989
G1 X118.29 Y69.47 E0.6217
G1 X118.646 Y69.573 E0.6271
G1 X119.283 Y69.903 E0.6376
G1 X119.966 Y70.425 E0.6502
G1 X120.483 Y71.102 E0.6626
G1 X120.811 Y71.888 E0.6751
G1 X120.92 Y72.733 E0.6875
G1 X120.811 Y73.578 E0.7
G1 X120.48 Y74.372 E0.7126
G1 X120.371 Y74.546 E0.7156
G1 X120.251 Y74.522 E0.7173
G1 X120.083 Y74.162 E0.7232
G1 X119.579 Y73.847 E0.7318
G1 X119.031 Y73.734 E0.74
G1 X118.622 Y73.915 E0.7466
G1 X118.449 Y74.531 E0.7559
G1 X118.367 Y75.632 E0.7721
G1 X118.392 Y76.826 E0.7895
G1 X118.577 Y77.664 E0.802
G1 X118.916 Y78.18 E0.8111
G1 X119.374 Y78.239 E0.8178
G1 X119.565 Y78.157 E0.8209
G1 X119.758 Y78.194 E0.8237
G1 X120.013 Y78.609 E0.8308
G1 X120.291 Y79.274 E0.8414
G1 X120.382 Y79.98 E0.8518
G1 X120.291 Y80.685 E0.8622
G1 X120.016 Y81.343 E0.8726
G1 X119.61 Y81.893 E0.8826
G1 X119.119 Y82.282 E0.8918
G1 X118.644 Y82.53 E0.8996
G1 X118.199 Y82.689 E0.9065
G1 X117.936 Y83.647 E0.921
G1 X117.748 Y88.502 E0.992
G1 X117.825 Y89.674 E1.0092
G1 X117.884 Y89.898 E1.0126
G1 X117.85 Y90.363 E1.0194
G1 X117.74 Y90.759 E1.0254
G1 X117.63 Y90.877 E1.0278
G1 X117.511 Y90.897 E1.0295
G1 X117.392 Y90.877 E1.0313
G1 X117.282 Y90.759 E1.0337
G1 X117.172 Y90.363 E1.0397
G1 X117.138 Y89.898 E1.0465
G1 X117.197 Y89.674 E1.0499
G1 X117.274 Y88.502 E1.067
G1 X117.086 Y83.647 E1.1381
G1 X116.823 Y82.689 E1.1526
G1 X116.377 Y82.53 E1.1595
G1 X115.903 Y82.282 E1.1673
G1 X115.412 Y81.893 E1.1765
G1 X115.005 Y81.343 E1.1865
G1 X114.731 Y80.685 E1.1969
G1 X114.64 Y79.98 E1.2073
G1 X114.731 Y79.274 E1.2177
G1 X115.009 Y78.609 E1.2282
G1 X115.263 Y78.194 E1.2353
G1 X115.457 Y78.157 E1.2382
G1 X115.648 Y78.239 E1.2413
G1 X116.106 Y78.18 E1.248
G1 X116.445 Y77.664 E1.257
G1 X116.63 Y76.826 E1.2696
G1 X116.655 Y75.632 E1.287
G1 X116.573 Y74.531 E1.3032
G1 X116.4 Y73.915 E1.3125
G1 X115.99 Y73.734 E1.319
G1 X115.443 Y73.847 E1.3272
G1 X114.938 Y74.162 E1.3359
G1 X114.771 Y74.522 E1.3417
G1 X114.651 Y74.546 E1.3435
G1 X114.542 Y74.372 E1.3465
G1 X114.211 Y73.578 E1.3591
G1 X114.102 Y72.733 E1.3715
G1 X114.211 Y71.888 E1.384
G1 X114.539 Y71.102 E1.3964
G1 X115.055 Y70.425 E1.4089
;TYPE:FILL
G1 X116.155 Y70.521 F10200.0
G1 X115.173 Y71.503 F1067.2181 E1.4292
G1 X119.433 Y80.82 F10200.0
G1 X118.463 Y81.79 F1067.2181 E1.4492
G1 X117.463 Y82.225 E1.4652
G1 X119.625 Y80.062 E1.5099
G1 X119.579 Y79.542 E1.5175
G1 X117.114 Y82.007 E1.5685
G1 X116.697 Y81.858 E1.5749
G1 X119.428 Y79.128 E1.6314
G1 X119.047 Y78.943 E1.6376
G1 X116.323 Y81.667 E1.6939
G1 X116.005 Y81.419 E1.6998
G1 X118.546 Y78.878 E1.7523
G1 X118.288 Y78.571 E1.7582
G1 X115.751 Y81.107 E1.8106
G1 X115.555 Y80.738 E1.8167
G1 X118.063 Y78.23 E1.8686
G1 X117.863 Y77.864 E1.8747
G1 X115.427 Y80.3 E1.925
G1 X115.416 Y79.745 E1.9331
G1 X117.761 Y77.4 E1.9816
G1 X117.659 Y76.937 E1.9885
G1 X117.279 Y77.317 E1.9964
G1 X117.373 Y76.657 E2.0061
G1 X117.643 Y76.387 E2.0117
G1 X117.386 Y76.079 E2.0176
G1 X117.631 Y75.833 E2.0226
G1 X117.388 Y75.511 E2.0285
G1 X117.654 Y75.245 E2.034
G1 X117.349 Y74.984 E2.0399
G1 X117.7 Y74.633 E2.0472
G1 X117.309 Y74.458 E2.0534
G1 X117.854 Y73.914 E2.0647
G1 X117.194 Y74.007 E2.0744
G1 X119.789 Y71.413 E2.128
G1 X119.544 Y71.092 E2.1339
G1 X117.07 Y73.566 E2.1851
G1 X116.791 Y73.279 E2.1909
G1 X119.256 Y70.814 E2.2419
G1 X118.935 Y70.569 E2.2478
G1 X118.571 Y70.368 E2.2539
G1 X116.399 Y73.106 E2.305
G1 X115.273 Y73.1 E2.3214
G1 X118.163 Y70.21 E2.3812
G1 X117.598 Y70.21 E2.3894
G1 X114.874 Y72.934 E2.4457
G1 X114.898 Y72.344 E2.4544
G1 X117.032 Y70.21 E2.4985
G1 X118.692 Y73.076 F10200.0
G1 X119.971 Y71.796 F1067.2181 E2.5249
G1 X120.108 Y72.225 E2.5315
G1 X119.309 Y73.024 E2.548
G1 X119.791 Y73.107 E2.5552
G1 X120.173 Y72.726 E2.5631
G92 E0
;LAYER:4
;TYPE:WALL-INNER
G1 X115.341 Y70.711 Z1.1 F10200.0
G1 X115.954 Y70.242 F1072.8931 E0.0113
G1 X116.525 Y69.946 E0.0207
G1 X116.789 Y69.87 E0.0247
G1 X118.233 Y69.87 E0.0458
G1 X118.497 Y69.946 E0.0498
G1 X119.067 Y70.242 E0.0592
G1 X119.681 Y70.711 E0.0705
G1 X120.134 Y71.304 E0.0814
G1 X120.421 Y71.993 E0.0923
G1 X120.517 Y72.733 E0.1032
G1 X120.435 Y73.367 E0.1125
G1 X120.054 Y73.672 E0.1197
G1 X119.73 Y73.47 E0.1253
G1 X118.987 Y73.317 E0.1363
G1 X118.288 Y73.626 E0.1475
G1 X118.053 Y74.461 E0.1602
G1 X117.967 Y75.622 E0.1772
G1 X117.993 Y76.874 E0.1955
G1 X118.202 Y77.822 E0.2097
G1 X118.683 Y78.553 E0.2225
G1 X119.243 Y78.625 E0.2307
G1 X119.696 Y78.887 E0.2384
G1 X119.901 Y79.379 E0.2462
G1 X119.979 Y79.98 E0.255
G1 X119.901 Y80.58 E0.2639
G1 X119.666 Y81.144 E0.2728
G1 X119.32 Y81.613 E0.2813
G1 X118.898 Y81.947 E0.2892
G1 X117.889 Y82.401 E0.3053
G1 X117.7 Y83.253 E0.3181
G1 X117.322 Y83.253 E0.3236
G1 X117.133 Y82.401 E0.3364
G1 X116.124 Y81.947 E0.3526
G1 X115.702 Y81.613 E0.3604
G1 X115.356 Y81.144 E0.3689
G1 X115.121 Y80.58 E0.3779
G1 X115.043 Y79.98 E0.3867
G1 X115.121 Y79.379 E0.3956
G1 X115.326 Y78.887 E0.4033
G1 X115.779 Y78.625 E0.411
G1 X116.339 Y78.553 E0.4193
G1 X116.82 Y77.822 E0.432
G1 X117.029 Y76.874 E0.4462
G1 X117.055 Y75.622 E0.4645
G1 X116.969 Y74.461 E0.4815
G1 X116.734 Y73.626 E0.4942
G1 X116.035 Y73.317 E0.5054
G1 X115.292 Y73.47 E0.5165
G1 X114.967 Y73.672 E0.5221
G1 X114.587 Y73.367 E0.5292
G1 X114.505 Y72.733 E0.5385
G1 X114.601 Y71.993 E0.5494
G1 X114.888 Y71.304 E0.5603
G1 X115.341 Y70.711 E0.5712
;TYPE:WALL-OUTER
G1 X115.055 Y70.425 F10200.0
G1 X115.739 Y69.903 F1072.8931 E0.5838
G1 X116.376 Y69.573 E0.5943
G1 X116.732 Y69.47 E0.5997
G1 X118.29 Y69.47 E0.6225
G1 X118.646 Y69.573 E0.6279
G1 X119.283 Y69.903 E0.6384
G1 X119.966 Y70.425 E0.651
G1 X120.483 Y71.102 E0.6634
G1 X120.811 Y71.888 E0.6758
G1 X120.92 Y72.733 E0.6883
G1 X120.811 Y73.578 E0.7007
G1 X120.48 Y74.372 E0.7133
G1 X120.371 Y74.546 E0.7163
G1 X120.251 Y74.522 E0.7181
G1 X120.083 Y74.162 E0.7239
G1 X119.579 Y73.847 E0.7326
G1 X119.031 Y73.734 E0.7408
G1 X118.622 Y73.915 E0.7473
G1 X118.449 Y74.531 E0.7567
G1 X118.367 Y75.632 E0.7728
G1 X118.392 Y76.826 E0.7902
G1 X118.577 Y77.664 E0.8028
G1 X118.916 Y78.18 E0.8118
G1 X119.374 Y78.239 E0.8185
G1 X119.565 Y78.157 E0.8216
G1 X119.758 Y78.194 E0.8245
G1 X120.013 Y78.609 E0.8316
G1 X120.291 Y79.274 E0.8421
G1 X120.382 Y79.98 E0.8525
G1 X120.291 Y80.685 E0.8629
G1 X120.016 Y81.343 E0.8733
G1 X119.61 Y81.893 E0.8833
G1 X119.118 Y82.283 E0.8925
G1 X118.651 Y82.532 E0.9002
G1 X118.233 Y82.695 E0.9068
G1 X118.022 Y83.653 E0.9211
G1 X117.852 Y89.519 E1.0069
G1 X117.895 Y89.883 E1.0122
G1 X117.851 Y90.361 E1.0192
G1 X117.74 Y90.759 E1.0253
G1 X117.63 Y90.877 E1.0276
G1 X117.511 Y90.897 E1.0294
G1 X117.392 Y90.877 E1.0312
G1 X117.282 Y90.759 E1.0335
G1 X117.171 Y90.361 E1.0396
G1 X117.127 Y89.883 E1.0466
G1 X117.17 Y89.519 E1.0519
G1 X117.0 Y83.653 E1.1377
G1 X116.789 Y82.695 E1.152
G1 X116.371 Y82.532 E1.1586
G1 X115.903 Y82.283 E1.1663
G1 X115.412 Y81.893 E1.1755
G1 X115.005 Y81.343 E1.1855
G1 X114.731 Y80.685 E1.1959
G1 X114.64 Y79.98 E1.2063
G1 X114.731 Y79.274 E1.2167
G1 X115.009 Y78.609 E1.2272
G1 X115.263 Y78.194 E1.2343
G1 X115.457 Y78.157 E1.2372
G1 X115.648 Y78.239 E1.2402
G1 X116.106 Y78.18 E1.247
G1 X116.445 Y77.664 E1.256
G1 X116.63 Y76.826 E1.2685
G1 X116.655 Y75.632 E1.286
G1 X116.573 Y74.531 E1.3021
G1 X116.4 Y73.915 E1.3115
G1 X115.99 Y73.734 E1.318
G1 X115.443 Y73.847 E1.3262
G1 X114.938 Y74.162 E1.3349
G1 X114.771 Y74.522 E1.3407
G1 X114.651 Y74.546 E1.3425
G1 X114.542 Y74.372 E1.3455
G1 X114.211 Y73.578 E1.3581
G1 X114.102 Y72.733 E1.3705
G1 X114.211 Y71.888 E1.3829
G1 X114.539 Y71.102 E1.3954
G1 X115.055 Y70.425 E1.4078
;TYPE:FILL
G1 X115.972 Y72.98 F10200.0
G1 X114.974 Y71.982 F1072.8931 E1.4285
G1 X114.883 Y72.457 E1.4355
G1 X115.489 Y73.063 E1.4481
G1 X115.007 Y73.146 E1.4552
G1 X114.886 Y73.025 E1.4577
G1 X118.337 Y70.254 F10200.0
G1 X120.036 Y71.953 F1072.8931 E1.4928
G1 X120.163 Y72.645 E1.5031
G1 X117.728 Y70.21 E1.5534
G1 X117.162 Y70.21 E1.5617
G1 X120.115 Y73.163 E1.6227
G1 X119.431 Y73.045 E1.6329
G1 X116.65 Y70.264 E1.6904
G1 X116.278 Y70.457 E1.6965
G1 X118.833 Y73.013 E1.7493
G1 X118.441 Y73.186 E1.7556
G1 X115.938 Y70.683 E1.8073
G1 X115.617 Y70.928 E1.8132
G1 X118.049 Y73.36 E1.8635
G1 X117.894 Y73.77 E1.8699
G1 X115.364 Y71.241 E1.9222
G1 X115.14 Y71.582 E1.9281
G1 X117.05 Y73.492 E1.9676
G1 X117.27 Y74.278 E1.9795
G1 X117.77 Y74.212 E1.9869
G1 X117.694 Y74.702 E1.9941
G1 X117.344 Y74.917 E2.0002
G1 X117.655 Y75.229 E2.0066
G1 X117.389 Y75.528 E2.0125
G1 X117.63 Y75.769 E2.0174
G1 X117.385 Y76.09 E2.0233
G1 X117.642 Y76.347 E2.0286
G1 X117.374 Y76.644 E2.0345
G1 X117.657 Y76.927 E2.0403
G1 X117.316 Y77.152 E2.0463
G1 X117.817 Y77.653 E2.0567
G1 X117.213 Y77.615 E2.0655
G1 X119.629 Y80.031 E2.1154
G1 X119.556 Y80.524 E2.1227
G1 X117.079 Y78.047 E2.1739
G1 X116.855 Y78.388 E2.1799
G1 X119.39 Y80.923 E2.2322
G1 X119.159 Y81.258 E2.2382
G1 X116.63 Y78.729 E2.2905
G1 X116.243 Y78.908 E2.2967
G1 X118.87 Y81.535 E2.351
G1 X118.516 Y81.746 E2.357
G1 X115.784 Y79.015 E2.4135
G1 X115.517 Y79.313 E2.4193
G1 X118.125 Y81.921 E2.4732
G1 X117.735 Y82.097 E2.4795
G1 X115.413 Y79.774 E2.5275
G1 X115.436 Y80.363 E2.5361
G1 X117.528 Y82.456 E2.5793
G1 X119.525 Y79.362 F10200.0
G1 X119.115 Y78.951 F1072.8931 E2.5878
G92 E0
;LAYER:5
;TYPE:WALL-INNER
G1 X115.341 Y70.711 Z1.3 F10200.0
G1 X115.954 Y70.242 F1107.8765 E0.0113
G1 X116.525 Y69.946 E0.0207
G1 X116.789 Y69.87 E0.0247
G1 X118.233 Y69.87 E0.0458
G1 X118.497 Y69.946 E0.0498
G1 X119.067 Y70.242 E0.0592
G1 X119.681 Y70.711 E0.0705
G1 X120.134 Y71.304 E0.0814
G1 X120.421 Y71.993 E0.0923
G1 X120.517 Y72.733 E0.1032
G1 X120.435 Y73.367 E0.1125
G1 X120.054 Y73.672 E0.1197
G1 X119.73 Y73.47 E0.1252
G1 X118.987 Y73.317 E0.1363
G1 X118.288 Y73.626 E0.1475
G1 X118.053 Y74.461 E0.1602
G1 X117.967 Y75.622 E0.1772
G1 X117.993 Y76.874 E0.1955
G1 X118.202 Y77.822 E0.2097
G1 X118.683 Y78.553 E0.2224
G1 X119.243 Y78.625 E0.2307
G1 X119.696 Y78.887 E0.2383
G1 X119.901 Y79.379 E0.2461
G1 X119.979 Y79.98 E0.255
G1 X119.901 Y80.58 E0.2638
G1 X119.666 Y81.144 E0.2727
G1 X119.32 Y81.613 E0.2813
G1 X118.9 Y81.946 E0.2891
G1 X117.934 Y82.454 E0.305
G1 X117.734 Y83.648 E0.3227
G1 X117.681 Y85.128 E0.3444
G1 X117.34 Y85.128 E0.3493
G1 X117.288 Y83.648 E0.371
G1 X117.088 Y82.454 E0.3887
G1 X116.122 Y81.946 E0.4046
G1 X115.702 Y81.613 E0.4124
G1 X115.356 Y81.144 E0.421
G1 X115.121 Y80.58 E0.4299
G1 X115.043 Y79.98 E0.4387
G1 X115.121 Y79.379 E0.4476
G1 X115.326 Y78.887 E0.4554
G1 X115.779 Y78.625 E0.463
G1 X116.339 Y78.553 E0.4713
G1 X116.82 Y77.822 E0.484
G1 X117.029 Y76.874 E0.4982
G1 X117.055 Y75.622 E0.5165
G1 X116.969 Y74.461 E0.5335
G1 X116.734 Y73.626 E0.5462
G1 X116.035 Y73.317 E0.5574
G1 X115.292 Y73.47 E0.5685
G1 X114.967 Y73.672 E0.5741
G1 X114.587 Y73.367 E0.5812
G1 X114.505 Y72.733 E0.5905
G1 X114.601 Y71.993 E0.6014
G1 X114.888 Y71.304 E0.6123
G1 X115.341 Y70.711 E0.6232
;TYPE:WALL-OUTER
G1 X115.055 Y70.425 F10200.0
G1 X115.739 Y69.903 F1107.8765 E0.6358
G1 X116.376 Y69.573 E0.6463
G1 X116.732 Y69.47 E0.6517
G1 X118.29 Y69.47 E0.6745
G1 X118.646 Y69.573 E0.6799
G1 X119.283 Y69.903 E0.6904
G1 X119.966 Y70.425 E0.7029
G1 X120.483 Y71.102 E0.7154
G1 X120.811 Y71.888 E0.7278
G1 X120.92 Y72.733 E0.7403
G1 X120.811 Y73.578 E0.7527
G1 X120.48 Y74.372 E0.7653
G1 X120.371 Y74.546 E0.7683
G1 X120.251 Y74.522 E0.7701
G1 X120.083 Y74.162 E0.7759
G1 X119.579 Y73.847 E0.7846
G1 X119.031 Y73.734 E0.7927
G1 X118.622 Y73.915 E0.7993
G1 X118.449 Y74.531 E0.8086
G1 X118.367 Y75.632 E0.8248
G1 X118.392 Y76.826 E0.8422
G1 X118.577 Y77.664 E0.8547
G1 X118.916 Y78.18 E0.8638
G1 X119.374 Y78.239 E0.8705
G1 X119.565 Y78.157 E0.8735
G1 X119.758 Y78.194 E0.8764
G1 X120.013 Y78.609 E0.8835
G1 X120.291 Y79.274 E0.8941
G1 X120.382 Y79.98 E0.9044
G1 X120.291 Y80.685 E0.9148
G1 X120.016 Y81.343 E0.9253
G1 X119.61 Y81.893 E0.9353
G1 X119.119 Y82.282 E0.9444
G1 X118.296 Y82.715 E0.958
G1 X118.132 Y83.688 E0.9724
G1 X117.914 Y89.864 E1.0627
G1 X117.852 Y90.358 E1.07
G1 X117.74 Y90.759 E1.0761
G1 X117.63 Y90.877 E1.0784
G1 X117.511 Y90.897 E1.0802
G1 X117.392 Y90.877 E1.0819
G1 X117.282 Y90.759 E1.0843
G1 X117.17 Y90.358 E1.0904
G1 X117.108 Y89.864 E1.0977
G1 X116.889 Y83.688 E1.1879
G1 X116.726 Y82.715 E1.2024
G1 X115.903 Y82.282 E1.2159
G1 X115.412 Y81.893 E1.2251
G1 X115.005 Y81.343 E1.2351
G1 X114.731 Y80.685 E1.2455
G1 X114.64 Y79.98 E1.2559
G1 X114.731 Y79.274 E1.2663
G1 X115.009 Y78.609 E1.2768
G1 X115.263 Y78.194 E1.2839
G1 X115.457 Y78.157 E1.2868
G1 X115.648 Y78.239 E1.2899
G1 X116.106 Y78.18 E1.2966
G1 X116.445 Y77.664 E1.3056
G1 X116.63 Y76.826 E1.3182
G1 X116.655 Y75.632 E1.3356
G1 X116.573 Y74.531 E1.3517
G1 X116.4 Y73.915 E1.3611
G1 X115.99 Y73.734 E1.3676
G1 X115.443 Y73.847 E1.3758
G1 X114.938 Y74.162 E1.3845
G1 X114.771 Y74.522 E1.3903
G1 X114.651 Y74.546 E1.3921
G1 X114.542 Y74.372 E1.3951
G1 X114.211 Y73.578 E1.4077
G1 X114.102 Y72.733 E1.4201
G1 X114.211 Y71.888 E1.4325
G1 X114.539 Y71.102 E1.445
G1 X115.055 Y70.425 E1.4574
;TYPE:FILL
G1 X115.173 Y71.503 F10200.0
G1 X116.155 Y70.521 F1107.8765 E1.4777
G1 X119.433 Y80.82 F10200.0
G1 X118.46 Y81.793 F1107.8765 E1.4978
G1 X117.404 Y82.283 E1.5148
G1 X119.625 Y80.062 E1.5607
G1 X119.579 Y79.542 E1.5683
G1 X117.064 Y82.057 E1.6203
G1 X116.694 Y81.862 E1.6264
G1 X119.428 Y79.128 E1.6829
G1 X119.047 Y78.943 E1.6891
G1 X116.323 Y81.667 E1.7454
G1 X116.005 Y81.419 E1.7513
G1 X118.546 Y78.878 E1.8038
G1 X118.288 Y78.571 E1.8097
G1 X115.751 Y81.107 E1.8621
G1 X115.555 Y80.738 E1.8682
G1 X118.063 Y78.23 E1.92
G1 X117.863 Y77.864 E1.9261
G1 X115.427 Y80.3 E1.9765
G1 X115.416 Y79.745 E1.9846
G1 X117.761 Y77.4 E2.033
G1 X117.659 Y76.937 E2.0399
G1 X117.279 Y77.317 E2.0478
G1 X117.373 Y76.657 E2.0575
G1 X117.643 Y76.387 E2.0631
G1 X117.386 Y76.079 E2.069
G1 X117.631 Y75.833 E2.074
G1 X117.388 Y75.511 E2.0799
G1 X117.654 Y75.245 E2.0854
G1 X117.349 Y74.984 E2.0913
G1 X117.7 Y74.633 E2.0985
G1 X117.309 Y74.458 E2.1048
G1 X117.854 Y73.914 E2.116
G1 X117.194 Y74.007 E2.1258
G1 X119.789 Y71.413 E2.1794
G1 X119.544 Y71.092 E2.1853
G1 X117.07 Y73.566 E2.2364
G1 X116.791 Y73.279 E2.2423
G1 X119.256 Y70.814 E2.2932
G1 X118.935 Y70.569 E2.2991
G1 X116.399 Y73.106 E2.3515
G1 X115.957 Y72.982 E2.3582
G1 X118.571 Y70.368 E2.4122
G1 X118.163 Y70.21 E2.4186
G1 X115.273 Y73.1 E2.4783
G1 X114.874 Y72.934 E2.4847
G1 X117.598 Y70.21 E2.5409
G1 X117.032 Y70.21 E2.5492
G1 X114.898 Y72.344 E2.5933
G1 X118.692 Y73.076 F10200.0
G1 X119.971 Y71.796 F1107.8765 E2.6197
G1 X120.108 Y72.225 E2.6263
G1 X119.309 Y73.024 E2.6428
G1 X119.791 Y73.107 E2.65
G1 X120.173 Y72.726 E2.6579
G92 E0
;LAYER:6
;TYPE:WALL-INNER
G1 X117.411 Y71.207 Z1.5 F10200.0
G1 X117.611 Y71.207 F600.0 E0.0011
G1 X117.723 Y71.519 E0.0029
G1 X117.976 Y73.245 E0.0122
G1 X117.679 Y73.992 E0.0166
G1 X117.343 Y73.992 E0.0184
G1 X117.24 Y73.645 E0.0203
G1 X117.112 Y73.463 E0.0215
G1 X117.043 Y73.266 E0.0226
G1 X117.299 Y71.519 E0.0321
G1 X117.411 Y71.207 E0.0339
;TYPE:WALL-INNER
G1 X117.668 Y80.113 F10200.0
G1 X117.723 Y80.668 F600.0 E0.0369
G1 X117.65 Y81.314 E0.0404
G1 X117.37 Y81.349 E0.0419
G1 X117.305 Y80.789 E0.045
G1 X117.364 Y80.149 E0.0484
G1 X117.668 Y80.113 E0.0501
;TYPE:WALL-OUTER
G1 X118.066 Y80.073 F10200.0
G1 X118.125 Y80.671 F600.0 E0.0533
G1 X117.868 Y82.944 E0.0656
G1 X117.798 Y83.226 E0.0672
G1 X117.721 Y83.266 E0.0676
G1 X117.301 Y83.266 E0.0699
G1 X117.224 Y83.226 E0.0704
G1 X117.153 Y82.943 E0.0719
G1 X116.903 Y80.794 E0.0836
G1 X117.12 Y78.423 E0.0964
G1 X117.121 Y75.492 E0.1121
G1 X117.044 Y74.392 E0.1181
G1 X116.875 Y73.821 E0.1213
G1 X116.753 Y73.647 E0.1224
G1 X116.642 Y73.535 E0.1233
G1 X116.635 Y73.313 E0.1245
G1 X116.506 Y73.209 E0.1254
G1 X116.751 Y72.263 E0.1306
G1 X116.911 Y71.413 E0.1353
G1 X117.13 Y70.807 E0.1387
G1 X117.371 Y70.425 E0.1412
G1 X117.442 Y70.373 E0.1416
G1 X117.58 Y70.373 E0.1424
G1 X117.651 Y70.425 E0.1429
G1 X117.891 Y70.807 E0.1453
G1 X118.11 Y71.413 E0.1488
G1 X118.27 Y72.263 E0.1534
G1 X118.516 Y73.209 E0.1587
G1 X118.386 Y73.313 E0.1596
G1 X118.387 Y73.516 E0.1606
G1 X118.147 Y73.821 E0.1627
G1 X117.978 Y74.391 E0.1659
G1 X117.901 Y75.492 E0.1719
G1 X117.902 Y78.424 E0.1876
G1 X118.066 Y80.073 E0.1966
G92 E0
;LAYER:7
;TYPE:WALL-INNER
G1 X117.325 Y72.55 Z1.7 F10200.0
G1 X117.697 Y72.55 F600.0 E0.0013
G1 X117.75 Y72.714 E0.002
G1 X117.77 Y73.383 E0.0044
G1 X117.251 Y73.383 E0.0062
G1 X117.272 Y72.714 E0.0086
G1 X117.325 Y72.55 E0.0093
;TYPE:WALL-OUTER
G1 X116.944 Y72.427 F10200.0
G1 X117.193 Y71.653 F600.0 E0.0122
G1 X117.369 Y70.869 E0.0151
G1 X117.408 Y70.837 E0.0153
G1 X117.614 Y70.837 E0.016
G1 X117.652 Y70.869 E0.0162
G1 X117.829 Y71.653 E0.0191
G1 X118.148 Y72.646 E0.0228
G1 X118.16 Y73.093 E0.0244
G1 X118.227 Y73.385 E0.0255
G1 X118.222 Y73.452 E0.0258
G1 X118.177 Y73.581 E0.0262
G1 X118.053 Y73.783 E0.0271
G1 X117.909 Y74.359 E0.0292
G1 X117.855 Y81.06 E0.0534
G1 X117.702 Y81.306 E0.0544
G1 X117.32 Y81.306 E0.0558
G1 X117.167 Y81.06 E0.0568
G1 X117.113 Y74.359 E0.0809
G1 X116.969 Y73.783 E0.0831
G1 X116.845 Y73.581 E0.0839
G1 X116.8 Y73.452 E0.0844
G1 X116.795 Y73.385 E0.0846
G1 X116.862 Y73.093 E0.0857
G1 X116.873 Y72.646 E0.0873
G1 X116.944 Y72.427 E0.0882
G92 E0
;LAYER:8
;TYPE:WALL-OUTER
G1 X117.369 Y71.511 Z1.9 F10200.0
G1 X117.653 Y71.511 F600.0 E0.001
G1 X117.764 Y71.635 E0.0016
G1 X118.16 Y73.449 E0.0082
G1 X118.143 Y73.563 E0.0086
G1 X118.04 Y73.773 E0.0094
G1 X117.921 Y74.341 E0.0115
G1 X117.857 Y79.099 E0.0284
G1 X117.688 Y79.57 E0.0302
G1 X117.334 Y79.57 E0.0315
G1 X117.165 Y79.099 E0.0332
G1 X117.101 Y74.341 E0.0501
G1 X116.982 Y73.773 E0.0522
G1 X116.879 Y73.563 E0.053
G1 X116.862 Y73.449 E0.0534
G1 X117.258 Y71.635 E0.06
G1 X117.369 Y71.511 E0.0606
;TYPE:FILL
G1 X117.477 Y72.222 F10200.0
G1 X117.563 Y72.308 F600.0 E0.0611
G1 X117.376 Y72.687 E0.0626
G1 X117.721 Y73.032 E0.0643
G1 X117.275 Y73.151 E0.066
G1 X117.739 Y73.615 E0.0683
G1 X117.329 Y73.771 E0.0698
G1 X117.63 Y74.072 E0.0714
G1 X117.443 Y74.451 E0.0729
G1 X117.577 Y74.585 E0.0735
G1 X117.451 Y75.024 E0.0752
G1 X117.57 Y75.143 E0.0758
G1 X117.458 Y75.597 E0.0774
G1 X117.562 Y75.701 E0.0779
G1 X117.466 Y76.171 E0.0796
G1 X117.555 Y76.26 E0.0801
G1 X117.474 Y76.744 E0.0818
G1 X117.547 Y76.818 E0.0822
G1 X117.481 Y77.317 E0.084
G1 X117.54 Y77.376 E0.0843
G1 X117.489 Y77.891 E0.0861
G1 X117.532 Y77.934 E0.0863
G92 E0
;LAYER:9
;TYPE:WALL-OUTER
G1 X117.319 Y72.197 Z2.1 F10200.0
G1 X117.702 Y72.197 F600.0 E0.001
G1 X117.879 Y72.412 E0.0018
G1 X118.105 Y73.511 E0.0047
G1 X118.034 Y73.703 E0.0053
G1 X117.928 Y74.345 E0.007
G1 X117.883 Y77.119 E0.0144
G1 X117.693 Y77.832 E0.0163
G1 X117.328 Y77.832 E0.0173
G1 X117.138 Y77.119 E0.0193
G1 X117.094 Y74.345 E0.0266
G1 X116.987 Y73.703 E0.0283
G1 X116.917 Y73.511 E0.0289
G1 X117.143 Y72.412 E0.0319
G1 X117.319 Y72.197 E0.0326
;TYPE:FILL
G1 X117.529 Y77.067 F10200.0
G1 X117.494 Y77.102 F600.0 E0.0327
G1 X117.482 Y76.548 E0.0342
G1 X117.541 Y76.489 E0.0344
G1 X117.47 Y75.995 E0.0358
G1 X117.554 Y75.91 E0.0361
G1 X117.458 Y75.441 E0.0373
G1 X117.566 Y75.332 E0.0377
G1 X117.446 Y74.887 E0.039
G1 X117.579 Y74.754 E0.0395
G1 X117.434 Y74.334 E0.0407
G1 X117.622 Y74.145 E0.0414
G1 X117.343 Y73.859 E0.0424
G1 X117.746 Y73.455 E0.0439
G1 X117.3 Y73.336 E0.0452
G1 X117.65 Y72.986 E0.0465
G1 X117.446 Y72.624 E0.0476
G1 X117.534 Y72.537 E0.0479
G92 E0
;LAYER:10
;TYPE:WALL-OUTER
G1 X117.259 Y72.881 Z2.3 F10200.0
G1 X117.763 Y72.881 F600.0 E0.0007
G1 X118.002 Y73.196 E0.0013
G1 X118.054 Y73.444 E0.0017
G1 X118.053 Y73.546 E0.0018
G1 X118.033 Y73.592 E0.0019
G1 X117.916 Y75.106 E0.0042
G1 X117.702 Y76.094 E0.0057
G1 X117.32 Y76.094 E0.0062
G1 X117.105 Y75.106 E0.0077
G1 X116.989 Y73.592 E0.0099
G1 X116.969 Y73.546 E0.01
G1 X116.968 Y73.444 E0.0102
G1 X117.02 Y73.196 E0.0105
G1 X117.259 Y72.881 E0.0111
;TYPE:FILL
G1 X117.392 Y73.269 F10200.0
G1 X117.698 Y73.574 F600.0 E0.0118
G1 X117.344 Y73.786 E0.0124
G1 X117.649 Y74.091 E0.013
G1 X117.403 Y74.411 E0.0136
G1 X117.6 Y74.608 E0.014
G1 X117.462 Y75.035 E0.0147
G1 X117.552 Y75.125 E0.0149
G92 E0
M107
;TYPE:CUSTOM
;Move to next object on the platform. clear_z is the minimal z height we need to make sure we do not hit any objects.
G92 E0
G91                                    ;relative positioning
G1 E-1 F300                            ;retract the filament a bit before lifting the nozzle, to release some of the pressure
G1 Z+0.5 E-5 F10200           ;move Z up a bit and retract filament even more
G90                                    ;absolute positioning
G1 Z7.33319735527 F180
G92 E0
G1 X?machine_center_x? Y?machine_center_y? F10200
G1 F200 E5
G92 E0;PRINTNR:1
;LAYER:0
;TYPE:SKIRT
G1 X110.284 Y117.467059052 Z0.3 F10200.0
G1 X110.805 Y124.668059052 F1800.0 E0.1583
G1 X111.07 Y126.407059052 E0.1968
G1 X113.314 Y135.305059052 E0.398
G1 X113.781 Y136.982059052 E0.4362
G1 X114.959 Y138.679059052 E0.4815
G1 X118.436 Y139.726059052 E0.5611
G1 X121.107 Y137.461059052 E0.6379
G1 X121.705 Y135.317059052 E0.6866
G1 X123.919 Y126.627059052 E0.8832
G1 X124.216 Y124.668059052 E0.9267
G1 X124.738 Y117.469059052 E1.0849
G1 X124.547 Y115.697059052 E1.124
G1 X123.596 Y113.514059052 E1.1762
G1 X122.407 Y112.097059052 E1.2167
G1 X120.369 Y110.786059052 E1.2699
G1 X119.011 Y110.332059052 E1.3012
G1 X115.191 Y110.567059052 E1.3851
G1 X113.622 Y111.352059052 E1.4236
G1 X112.212 Y112.518059052 E1.4637
G1 X111.238 Y113.793059052 E1.4989
G1 X110.474 Y115.714059052 E1.5442
G1 X110.284 Y117.467059052 E1.5829
G1 X110.686 Y117.463059052 F10200.0
G1 X111.209 Y124.664059052 F1800.0 E1.7411
G1 X111.458 Y126.299059052 E1.7774
G1 X113.721 Y135.275059052 E1.9803
G1 X114.148 Y136.810059052 E2.0153
G1 X115.208 Y138.337059052 E2.056
G1 X118.343 Y139.281059052 E2.1278
G1 X120.755 Y137.235059052 E2.1971
G1 X121.298 Y135.285059052 E2.2415
G1 X123.534 Y126.494059052 E2.4403
G1 X123.813 Y124.664059052 E2.4809
G1 X124.335 Y117.464059052 E2.6392
G1 X124.156 Y115.801059052 E2.6758
G1 X123.253 Y113.727059052 E2.7254
G1 X122.139 Y112.401059052 E2.7634
G1 X120.195 Y111.149059052 E2.8141
G1 X118.944 Y110.731059052 E2.843
G1 X115.325 Y110.947059052 E2.9225
G1 X113.842 Y111.689059052 E2.9588
G1 X112.502 Y112.797059052 E2.9969
G1 X111.589 Y113.992059052 E3.0299
G1 X110.866 Y115.811059052 E3.0728
G1 X110.686 Y117.463059052 E3.1092
G1 X118.56 Y117.463059052 F10200.0
G1 X115.922 Y126.162059052
G1 X117.438 Y130.749059052 F3400.0
G1 X117.437 Y130.682059052 F1800.0 E3.1107
G1 X117.264 Y128.264059052 E3.1638
G1 X116.904 Y127.309059052 E3.1862
G1 X116.393 Y127.157059052 E3.1979
G1 X115.901 Y126.911059052 E3.2099
G1 X115.412 Y126.523059052 E3.2236
G1 X115.005 Y125.973059052 E3.2386
G1 X114.731 Y125.315059052 E3.2543
G1 X114.64 Y124.610059052 E3.2699
G1 X114.731 Y123.904059052 E3.2854
G1 X115.009 Y123.239059052 E3.3013
G1 X115.263 Y122.824059052 E3.3119
G1 X115.457 Y122.787059052 E3.3162
G1 X115.648 Y122.869059052 E3.3208
G1 X116.106 Y122.810059052 E3.3309
G1 X116.445 Y122.294059052 E3.3444
G1 X116.63 Y121.456059052 E3.3633
G1 X116.655 Y120.262059052 E3.3894
G1 X116.573 Y119.161059052 E3.4136
G1 X116.4 Y118.545059052 E3.4277
G1 X115.99 Y118.364059052 E3.4375
G1 X115.443 Y118.477059052 E3.4497
G1 X114.938 Y118.792059052 E3.4628
G1 X114.771 Y119.152059052 E3.4715
G1 X114.651 Y119.176059052 E3.4742
G1 X114.542 Y119.002059052 E3.4787
G1 X114.211 Y118.208059052 E3.4975
G1 X114.102 Y117.363059052 E3.5162
G1 X114.211 Y116.518059052 E3.5349
G1 X114.539 Y115.732059052 E3.5535
G1 X115.055 Y115.055059052 E3.5722
G1 X115.739 Y114.533059052 E3.5911
G1 X116.376 Y114.203059052 E3.6068
G1 X116.732 Y114.100059052 E3.6149
G1 X118.29 Y114.100059052 E3.6491
G1 X118.646 Y114.203059052 E3.6572
G1 X119.283 Y114.533059052 E3.6729
G1 X119.966 Y115.055059052 E3.6918
G1 X120.483 Y115.732059052 E3.7105
G1 X120.811 Y116.518059052 E3.7291
G1 X120.92 Y117.363059052 E3.7478
G1 X120.811 Y118.208059052 E3.7665
G1 X120.48 Y119.002059052 E3.7853
G1 X120.371 Y119.176059052 E3.7898
G1 X120.251 Y119.152059052 E3.7925
G1 X120.083 Y118.792059052 E3.8012
G1 X119.579 Y118.477059052 E3.8143
G1 X119.031 Y118.364059052 E3.8265
G1 X118.622 Y118.545059052 E3.8363
G1 X118.449 Y119.161059052 E3.8504
G1 X118.367 Y120.262059052 E3.8746
G1 X118.392 Y121.456059052 E3.9007
G1 X118.577 Y122.294059052 E3.9196
G1 X118.916 Y122.810059052 E3.9331
G1 X119.374 Y122.869059052 E3.9432
G1 X119.565 Y122.787059052 E3.9478
G1 X119.758 Y122.824059052 E3.9521
G1 X120.013 Y123.239059052 E3.9627
G1 X120.291 Y123.904059052 E3.9785
G1 X120.382 Y124.610059052 E3.9941
G1 X120.291 Y125.315059052 E4.0097
G1 X120.016 Y125.973059052 E4.0254
G1 X119.61 Y126.523059052 E4.0404
G1 X119.12 Y126.911059052 E4.0541
G1 X118.629 Y127.157059052 E4.0661
G1 X118.118 Y127.309059052 E4.0778
G1 X117.758 Y128.264059052 E4.1002
G1 X117.585 Y130.682059052 E4.1533
G1 X117.568 Y133.143059052 E4.2073
G1 X117.722 Y134.193059052 E4.2305
G1 X117.863 Y134.545059052 E4.2388
G1 X117.849 Y134.997059052 E4.2488
G1 X117.74 Y135.389059052 E4.2577
G1 X117.63 Y135.507059052 E4.2612
G1 X117.511 Y135.527059052 E4.2639
G1 X117.392 Y135.507059052 E4.2665
G1 X117.282 Y135.389059052 E4.27
G1 X117.173 Y134.997059052 E4.279
G1 X117.159 Y134.545059052 E4.2889
G1 X117.3 Y134.193059052 E4.2972
G1 X117.454 Y133.143059052 E4.3204
G1 X117.453 Y133.085059052 E4.3217
;TYPE:WALL-INNER
G1 X117.361 Y127.387059052 F3400.0
G1 X117.209 Y126.983059052 F1800.0 E4.3312
G1 X116.54 Y126.784059052 E4.3465
G1 X116.118 Y126.572059052 E4.3568
G1 X115.702 Y126.243059052 E4.3685
G1 X115.356 Y125.774059052 E4.3812
G1 X115.121 Y125.210059052 E4.3946
G1 X115.043 Y124.610059052 E4.4079
G1 X115.121 Y124.009059052 E4.4212
G1 X115.326 Y123.517059052 E4.4329
G1 X115.779 Y123.255059052 E4.4443
G1 X116.339 Y123.183059052 E4.4567
G1 X116.82 Y122.452059052 E4.4759
G1 X117.029 Y121.504059052 E4.4972
G1 X117.055 Y120.252059052 E4.5246
G1 X116.969 Y119.091059052 E4.5501
G1 X116.734 Y118.256059052 E4.5692
G1 X116.035 Y117.947059052 E4.5859
G1 X115.292 Y118.100059052 E4.6025
G1 X114.967 Y118.302059052 E4.6109
G1 X114.587 Y117.997059052 E4.6216
G1 X114.505 Y117.363059052 E4.6356
G1 X114.601 Y116.623059052 E4.652
G1 X114.888 Y115.934059052 E4.6684
G1 X115.341 Y115.341059052 E4.6847
G1 X115.954 Y114.872059052 E4.7016
G1 X116.525 Y114.576059052 E4.7157
G1 X116.789 Y114.500059052 E4.7218
G1 X118.233 Y114.500059052 E4.7534
G1 X118.497 Y114.576059052 E4.7594
G1 X119.067 Y114.872059052 E4.7735
G1 X119.681 Y115.341059052 E4.7904
G1 X120.134 Y115.934059052 E4.8068
G1 X120.421 Y116.623059052 E4.8232
G1 X120.517 Y117.363059052 E4.8395
G1 X120.435 Y117.997059052 E4.8535
G1 X120.054 Y118.302059052 E4.8642
G1 X119.73 Y118.100059052 E4.8726
G1 X118.987 Y117.947059052 E4.8893
G1 X118.288 Y118.256059052 E4.906
G1 X118.053 Y119.091059052 E4.925
G1 X117.967 Y120.252059052 E4.9505
G1 X117.993 Y121.504059052 E4.978
G1 X118.202 Y122.452059052 E4.9993
G1 X118.683 Y123.183059052 E5.0185
G1 X119.243 Y123.255059052 E5.0308
G1 X119.696 Y123.517059052 E5.0423
G1 X119.901 Y124.009059052 E5.054
G1 X119.979 Y124.610059052 E5.0673
G1 X119.901 Y125.210059052 E5.0805
G1 X119.666 Y125.774059052 E5.0939
G1 X119.32 Y126.243059052 E5.1067
G1 X118.904 Y126.572059052 E5.1183
G1 X118.481 Y126.784059052 E5.1287
G1 X117.813 Y126.982059052 E5.144
G1 X117.661 Y127.387059052 E5.1534
G1 X117.361 Y127.387059052 E5.16
;TYPE:FILL
G1 X118.337 Y114.884059052 F3400.0
G1 X120.036 Y116.583059052 F1800.0 E5.2127
G1 X120.163 Y117.275059052 E5.2281
G1 X117.728 Y114.840059052 E5.3036
G1 X117.162 Y114.840059052 E5.316
G1 X120.115 Y117.793059052 E5.4076
G1 X119.431 Y117.675059052 E5.4228
G1 X116.65 Y114.894059052 E5.509
G1 X116.278 Y115.087059052 E5.5182
G1 X118.833 Y117.643059052 E5.5975
G1 X118.441 Y117.816059052 E5.6069
G1 X115.938 Y115.313059052 E5.6845
G1 X115.617 Y115.558059052 E5.6933
G1 X118.049 Y117.990059052 E5.7687
G1 X117.894 Y118.400059052 E5.7783
G1 X115.364 Y115.871059052 E5.8568
G1 X115.14 Y116.212059052 E5.8657
G1 X117.77 Y118.842059052 E5.9473
G1 X117.694 Y119.332059052 E5.9581
G1 X117.27 Y118.908059052 E5.9713
G1 X117.344 Y119.547059052 E5.9854
G1 X117.655 Y119.859059052 E5.995
G1 X117.389 Y120.158059052 E6.0038
G1 X117.63 Y120.399059052 E6.0113
G1 X117.385 Y120.720059052 E6.0201
G1 X117.642 Y120.977059052 E6.0281
G1 X117.374 Y121.274059052 E6.0369
G1 X117.657 Y121.557059052 E6.0456
G1 X117.316 Y121.782059052 E6.0546
G1 X117.817 Y122.283059052 E6.0701
G1 X117.213 Y122.245059052 E6.0834
G1 X119.629 Y124.661059052 E6.1583
G1 X119.556 Y125.154059052 E6.1692
G1 X117.079 Y122.677059052 E6.246
G1 X116.855 Y123.018059052 E6.2549
G1 X119.39 Y125.553059052 E6.3335
G1 X119.159 Y125.888059052 E6.3425
G1 X116.63 Y123.359059052 E6.4209
G1 X116.243 Y123.538059052 E6.4302
G1 X118.87 Y126.165059052 E6.5117
G1 X118.522 Y126.383059052 E6.5207
G1 X115.784 Y123.645059052 E6.6055
G1 X115.517 Y123.943059052 E6.6143
G1 X118.112 Y126.539059052 E6.6948
G1 X117.651 Y126.643059052 E6.7052
G1 X115.413 Y124.404059052 E6.7746
G1 X115.436 Y124.993059052 E6.7875
G1 X117.012 Y126.569059052 E6.8363
G1 X119.525 Y123.992059052 F3400.0
G1 X119.115 Y123.581059052 F1800.0 E6.8491
G1 X115.972 Y117.610059052 F3400.0
G1 X114.974 Y116.612059052 F1800.0 E6.88
G1 X114.883 Y117.087059052 E6.8906
G1 X115.489 Y117.693059052 E6.9094
G1 X115.007 Y117.776059052 E6.9201
G1 X114.886 Y117.655059052 E6.9239
G92 E0
;LAYER:1
M106 S255
;TYPE:WALL-INNER
G1 X115.341 Y115.341059052 Z0.5 F5666.6667
G1 X115.954 Y114.872059052 F1084.258 E0.0113
G1 X116.525 Y114.576059052 E0.0207
G1 X116.789 Y114.500059052 E0.0247
G1 X118.233 Y114.500059052 E0.0458
G1 X118.497 Y114.576059052 E0.0498
G1 X119.067 Y114.872059052 E0.0592
G1 X119.681 Y115.341059052 E0.0705
G1 X120.134 Y115.934059052 E0.0814
G1 X120.421 Y116.623059052 E0.0923
G1 X120.517 Y117.363059052 E0.1032
G1 X120.435 Y117.997059052 E0.1125
G1 X120.054 Y118.302059052 E0.1197
G1 X119.73 Y118.100059052 E0.1253
G1 X118.987 Y117.947059052 E0.1364
G1 X118.288 Y118.256059052 E0.1475
G1 X118.053 Y119.091059052 E0.1602
G1 X117.967 Y120.252059052 E0.1772
G1 X117.993 Y121.504059052 E0.1955
G1 X118.202 Y122.452059052 E0.2097
G1 X118.683 Y123.183059052 E0.2225
G1 X119.243 Y123.255059052 E0.2307
G1 X119.696 Y123.517059052 E0.2384
G1 X119.901 Y124.009059052 E0.2462
G1 X119.979 Y124.610059052 E0.255
G1 X119.901 Y125.210059052 E0.2639
G1 X119.666 Y125.774059052 E0.2728
G1 X119.32 Y126.243059052 E0.2813
G1 X118.903 Y126.573059052 E0.2891
G1 X118.482 Y126.786059052 E0.296
G1 X117.828 Y126.989059052 E0.306
G1 X117.688 Y127.389059052 E0.3122
G1 X117.334 Y127.389059052 E0.3174
G1 X117.194 Y126.989059052 E0.3235
G1 X116.539 Y126.786059052 E0.3336
G1 X116.118 Y126.573059052 E0.3405
G1 X115.702 Y126.243059052 E0.3482
G1 X115.356 Y125.774059052 E0.3567
G1 X115.121 Y125.210059052 E0.3657
G1 X115.043 Y124.610059052 E0.3745
G1 X115.121 Y124.009059052 E0.3834
G1 X115.326 Y123.517059052 E0.3911
G1 X115.779 Y123.255059052 E0.3988
G1 X116.339 Y123.183059052 E0.4071
G1 X116.82 Y122.452059052 E0.4198
G1 X117.029 Y121.504059052 E0.434
G1 X117.055 Y120.252059052 E0.4523
G1 X116.969 Y119.091059052 E0.4693
G1 X116.734 Y118.256059052 E0.482
G1 X116.035 Y117.947059052 E0.4932
G1 X115.292 Y118.100059052 E0.5043
G1 X114.967 Y118.302059052 E0.5099
G1 X114.587 Y117.997059052 E0.517
G1 X114.505 Y117.363059052 E0.5263
G1 X114.601 Y116.623059052 E0.5372
G1 X114.888 Y115.934059052 E0.5481
G1 X115.341 Y115.341059052 E0.559
;TYPE:WALL-OUTER
G1 X115.055 Y115.055059052 F5666.6667
G1 X115.739 Y114.533059052 F1084.258 E0.5716
G1 X116.376 Y114.203059052 E0.5821
G1 X116.732 Y114.100059052 E0.5875
G1 X118.29 Y114.100059052 E0.6103
G1 X118.646 Y114.203059052 E0.6157
G1 X119.283 Y114.533059052 E0.6262
G1 X119.966 Y115.055059052 E0.6388
G1 X120.483 Y115.732059052 E0.6512
G1 X120.811 Y116.518059052 E0.6637
G1 X120.92 Y117.363059052 E0.6761
G1 X120.811 Y118.208059052 E0.6885
G1 X120.38 Y119.170059052 E0.7039
G1 X120.249 Y119.148059052 E0.7059
G1 X120.083 Y118.792059052 E0.7116
G1 X119.579 Y118.477059052 E0.7203
G1 X119.031 Y118.364059052 E0.7285
G1 X118.622 Y118.545059052 E0.735
G1 X118.449 Y119.161059052 E0.7444
G1 X118.367 Y120.262059052 E0.7605
G1 X118.392 Y121.456059052 E0.778
G1 X118.577 Y122.294059052 E0.7905
G1 X118.916 Y122.810059052 E0.7995
G1 X119.374 Y122.869059052 E0.8063
G1 X119.565 Y122.787059052 E0.8093
G1 X119.758 Y122.824059052 E0.8122
G1 X120.013 Y123.239059052 E0.8193
G1 X120.291 Y123.904059052 E0.8298
G1 X120.382 Y124.610059052 E0.8402
G1 X120.291 Y125.315059052 E0.8506
G1 X120.016 Y125.973059052 E0.861
G1 X119.61 Y126.523059052 E0.871
G1 X119.12 Y126.911059052 E0.8802
G1 X118.633 Y127.158059052 E0.8882
G1 X118.139 Y127.312059052 E0.8957
G1 X117.805 Y128.267059052 E0.9105
G1 X117.64 Y130.682059052 E0.9459
G1 X117.615 Y133.141059052 E0.9818
G1 X117.745 Y134.186059052 E0.9972
G1 X117.869 Y134.540059052 E1.0027
G1 X117.849 Y134.996059052 E1.0094
G1 X117.74 Y135.389059052 E1.0153
G1 X117.63 Y135.507059052 E1.0177
G1 X117.511 Y135.527059052 E1.0194
G1 X117.392 Y135.507059052 E1.0212
G1 X117.282 Y135.389059052 E1.0236
G1 X117.172 Y134.996059052 E1.0295
G1 X117.153 Y134.540059052 E1.0362
G1 X117.277 Y134.186059052 E1.0417
G1 X117.407 Y133.141059052 E1.0571
G1 X117.382 Y130.682059052 E1.093
G1 X117.217 Y128.267059052 E1.1284
G1 X116.883 Y127.312059052 E1.1432
G1 X116.389 Y127.158059052 E1.1507
G1 X115.902 Y126.911059052 E1.1587
G1 X115.412 Y126.523059052 E1.1678
G1 X115.005 Y125.973059052 E1.1778
G1 X114.731 Y125.315059052 E1.1883
G1 X114.64 Y124.610059052 E1.1987
G1 X114.731 Y123.904059052 E1.209
G1 X115.009 Y123.239059052 E1.2196
G1 X115.263 Y122.824059052 E1.2267
G1 X115.457 Y122.787059052 E1.2296
G1 X115.648 Y122.869059052 E1.2326
G1 X116.106 Y122.810059052 E1.2394
G1 X116.445 Y122.294059052 E1.2484
G1 X116.63 Y121.456059052 E1.2609
G1 X116.655 Y120.262059052 E1.2784
G1 X116.573 Y119.161059052 E1.2945
G1 X116.4 Y118.545059052 E1.3038
G1 X115.99 Y118.364059052 E1.3104
G1 X115.443 Y118.477059052 E1.3186
G1 X114.938 Y118.792059052 E1.3273
G1 X114.773 Y119.148059052 E1.333
G1 X114.641 Y119.170059052 E1.3349
G1 X114.211 Y118.208059052 E1.3504
G1 X114.102 Y117.363059052 E1.3628
G1 X114.211 Y116.518059052 E1.3752
G1 X114.539 Y115.732059052 E1.3877
G1 X115.055 Y115.055059052 E1.4001
;TYPE:FILL
G1 X115.173 Y116.133059052 F5666.6667
G1 X116.155 Y115.151059052 F1084.258 E1.4204
G1 X119.433 Y125.450059052 F5666.6667
G1 X118.474 Y126.409059052 F1084.258 E1.4402
G1 X117.668 Y126.649059052 E1.4525
G1 X119.625 Y124.692059052 E1.493
G1 X119.579 Y124.172059052 E1.5006
G1 X117.136 Y126.615059052 E1.5511
G1 X116.704 Y126.481059052 E1.5577
G1 X119.428 Y123.758059052 E1.614
G1 X119.047 Y123.573059052 E1.6202
G1 X116.324 Y126.296059052 E1.6765
G1 X116.005 Y126.049059052 E1.6824
G1 X118.546 Y123.508059052 E1.7349
G1 X118.288 Y123.201059052 E1.7407
G1 X115.751 Y125.737059052 E1.7932
G1 X115.555 Y125.368059052 E1.7993
G1 X118.063 Y122.860059052 E1.8511
G1 X117.863 Y122.494059052 E1.8572
G1 X115.427 Y124.930059052 E1.9076
G1 X115.416 Y124.375059052 E1.9157
G1 X117.761 Y122.030059052 E1.9641
G1 X117.659 Y121.567059052 E1.9711
G1 X117.279 Y121.947059052 E1.9789
G1 X117.373 Y121.287059052 E1.9886
G1 X117.643 Y121.017059052 E1.9942
G1 X117.386 Y120.709059052 E2.0001
G1 X117.631 Y120.463059052 E2.0051
G1 X117.388 Y120.141059052 E2.011
G1 X117.654 Y119.875059052 E2.0165
G1 X117.349 Y119.614059052 E2.0224
G1 X117.7 Y119.263059052 E2.0297
G1 X117.309 Y119.088059052 E2.0359
G1 X117.854 Y118.544059052 E2.0472
G1 X117.194 Y118.637059052 E2.0569
G1 X119.789 Y116.043059052 E2.1105
G1 X119.544 Y115.722059052 E2.1164
G1 X117.07 Y118.196059052 E2.1676
G1 X116.791 Y117.909059052 E2.1734
G1 X119.256 Y115.444059052 E2.2243
G1 X118.935 Y115.199059052 E2.2302
G1 X116.399 Y117.736059052 E2.2827
G1 X115.957 Y117.612059052 E2.2894
G1 X118.571 Y114.998059052 E2.3434
G1 X118.163 Y114.840059052 E2.3498
G1 X115.273 Y117.730059052 E2.4095
G1 X114.874 Y117.564059052 E2.4159
G1 X117.598 Y114.840059052 E2.4722
G1 X117.032 Y114.840059052 E2.4804
G1 X114.898 Y116.974059052 E2.5245
G1 X118.692 Y117.706059052 F5666.6667
G1 X119.971 Y116.426059052 F1084.258 E2.551
G1 X120.108 Y116.855059052 E2.5575
G1 X119.309 Y117.654059052 E2.574
G1 X119.791 Y117.737059052 E2.5812
G1 X120.173 Y117.356059052 E2.5891
G92 E0
;LAYER:2
;TYPE:WALL-INNER
G1 X115.341 Y115.341059052 Z0.7 F7933.3333
G1 X115.954 Y114.872059052 F1075.1724 E0.0113
G1 X116.525 Y114.576059052 E0.0207
G1 X116.789 Y114.500059052 E0.0247
G1 X118.233 Y114.500059052 E0.0458
G1 X118.497 Y114.576059052 E0.0498
G1 X119.067 Y114.872059052 E0.0592
G1 X119.681 Y115.341059052 E0.0705
G1 X120.134 Y115.934059052 E0.0814
G1 X120.421 Y116.623059052 E0.0923
G1 X120.517 Y117.363059052 E0.1032
G1 X120.435 Y117.997059052 E0.1126
G1 X120.054 Y118.302059052 E0.1197
G1 X119.73 Y118.100059052 E0.1253
G1 X118.987 Y117.947059052 E0.1364
G1 X118.288 Y118.256059052 E0.1475
G1 X118.053 Y119.091059052 E0.1602
G1 X117.967 Y120.252059052 E0.1772
G1 X117.993 Y121.504059052 E0.1955
G1 X118.202 Y122.452059052 E0.2097
G1 X118.683 Y123.183059052 E0.2225
G1 X119.243 Y123.255059052 E0.2308
G1 X119.696 Y123.517059052 E0.2384
G1 X119.901 Y124.009059052 E0.2462
G1 X119.979 Y124.610059052 E0.255
G1 X119.901 Y125.210059052 E0.2639
G1 X119.666 Y125.774059052 E0.2728
G1 X119.32 Y126.243059052 E0.2813
G1 X118.902 Y126.574059052 E0.2891
G1 X118.483 Y126.789059052 E0.296
G1 X117.847 Y126.999059052 E0.3058
G1 X117.571 Y127.871059052 E0.3192
G1 X117.451 Y127.871059052 E0.3209
G1 X117.175 Y126.999059052 E0.3343
G1 X116.538 Y126.789059052 E0.3441
G1 X116.12 Y126.574059052 E0.3509
G1 X115.702 Y126.243059052 E0.3587
G1 X115.356 Y125.774059052 E0.3673
G1 X115.121 Y125.210059052 E0.3762
G1 X115.043 Y124.610059052 E0.385
G1 X115.121 Y124.009059052 E0.3939
G1 X115.326 Y123.517059052 E0.4017
G1 X115.779 Y123.255059052 E0.4093
G1 X116.339 Y123.183059052 E0.4176
G1 X116.82 Y122.452059052 E0.4304
G1 X117.029 Y121.504059052 E0.4445
G1 X117.055 Y120.252059052 E0.4629
G1 X116.969 Y119.091059052 E0.4799
G1 X116.734 Y118.256059052 E0.4925
G1 X116.035 Y117.947059052 E0.5037
G1 X115.292 Y118.100059052 E0.5148
G1 X114.967 Y118.302059052 E0.5204
G1 X114.587 Y117.997059052 E0.5275
G1 X114.505 Y117.363059052 E0.5369
G1 X114.601 Y116.623059052 E0.5478
G1 X114.888 Y115.934059052 E0.5587
G1 X115.341 Y115.341059052 E0.5696
;TYPE:WALL-OUTER
G1 X115.055 Y115.055059052 F7933.3333
G1 X115.739 Y114.533059052 F1075.1724 E0.5822
G1 X116.376 Y114.203059052 E0.5926
G1 X116.732 Y114.100059052 E0.5981
G1 X118.29 Y114.100059052 E0.6208
G1 X118.646 Y114.203059052 E0.6262
G1 X119.283 Y114.533059052 E0.6367
G1 X119.966 Y115.055059052 E0.6493
G1 X120.483 Y115.732059052 E0.6617
G1 X120.811 Y116.518059052 E0.6742
G1 X120.92 Y117.363059052 E0.6866
G1 X120.811 Y118.208059052 E0.6991
G1 X120.48 Y119.002059052 E0.7117
G1 X120.371 Y119.176059052 E0.7147
G1 X120.251 Y119.152059052 E0.7165
G1 X120.083 Y118.792059052 E0.7223
G1 X119.579 Y118.477059052 E0.731
G1 X119.031 Y118.364059052 E0.7391
G1 X118.622 Y118.545059052 E0.7457
G1 X118.449 Y119.161059052 E0.755
G1 X118.367 Y120.262059052 E0.7712
G1 X118.392 Y121.456059052 E0.7886
G1 X118.577 Y122.294059052 E0.8012
G1 X118.916 Y122.810059052 E0.8102
G1 X119.374 Y122.869059052 E0.8169
G1 X119.565 Y122.787059052 E0.8199
G1 X119.758 Y122.824059052 E0.8228
G1 X120.013 Y123.239059052 E0.8299
G1 X120.291 Y123.904059052 E0.8405
G1 X120.382 Y124.610059052 E0.8509
G1 X120.291 Y125.315059052 E0.8613
G1 X120.016 Y125.973059052 E0.8717
G1 X119.61 Y126.523059052 E0.8817
G1 X119.12 Y126.912059052 E0.8908
G1 X118.638 Y127.159059052 E0.8987
G1 X118.166 Y127.315059052 E0.906
G1 X117.864 Y128.271059052 E0.9207
G1 X117.71 Y130.682059052 E0.956
G1 X117.675 Y133.138059052 E0.9919
G1 X117.775 Y134.177059052 E1.0071
G1 X117.876 Y134.532059052 E1.0125
G1 X117.85 Y134.995059052 E1.0193
G1 X117.74 Y135.389059052 E1.0253
G1 X117.63 Y135.507059052 E1.0276
G1 X117.511 Y135.527059052 E1.0294
G1 X117.392 Y135.507059052 E1.0312
G1 X117.282 Y135.389059052 E1.0335
G1 X117.172 Y134.995059052 E1.0395
G1 X117.146 Y134.532059052 E1.0463
G1 X117.247 Y134.177059052 E1.0517
G1 X117.347 Y133.138059052 E1.0669
G1 X117.312 Y130.682059052 E1.1028
G1 X117.158 Y128.271059052 E1.1381
G1 X116.856 Y127.315059052 E1.1528
G1 X116.383 Y127.159059052 E1.1601
G1 X115.902 Y126.912059052 E1.168
G1 X115.412 Y126.523059052 E1.1771
G1 X115.005 Y125.973059052 E1.1871
G1 X114.731 Y125.315059052 E1.1975
G1 X114.64 Y124.610059052 E1.2079
G1 X114.731 Y123.904059052 E1.2183
G1 X115.009 Y123.239059052 E1.2288
G1 X115.263 Y122.824059052 E1.236
G1 X115.457 Y122.787059052 E1.2388
G1 X115.648 Y122.869059052 E1.2419
G1 X116.106 Y122.810059052 E1.2486
G1 X116.445 Y122.294059052 E1.2576
G1 X116.63 Y121.456059052 E1.2702
G1 X116.655 Y120.262059052 E1.2876
G1 X116.573 Y119.161059052 E1.3038
G1 X116.4 Y118.545059052 E1.3131
G1 X115.99 Y118.364059052 E1.3197
G1 X115.443 Y118.477059052 E1.3278
G1 X114.938 Y118.792059052 E1.3365
G1 X114.771 Y119.152059052 E1.3423
G1 X114.651 Y119.176059052 E1.3441
G1 X114.542 Y119.002059052 E1.3471
G1 X114.211 Y118.208059052 E1.3597
G1 X114.102 Y117.363059052 E1.3721
G1 X114.211 Y116.518059052 E1.3846
G1 X114.539 Y115.732059052 E1.397
G1 X115.055 Y115.055059052 E1.4095
;TYPE:FILL
G1 X115.972 Y117.610059052 F7933.3333
G1 X114.974 Y116.612059052 F1075.1724 E1.4301
G1 X114.883 Y117.087059052 E1.4372
G1 X115.489 Y117.693059052 E1.4497
G1 X115.007 Y117.776059052 E1.4569
G1 X114.886 Y117.655059052 E1.4594
G1 X118.337 Y114.884059052 F7933.3333
G1 X120.036 Y116.583059052 F1075.1724 E1.4945
G1 X120.163 Y117.275059052 E1.5048
G1 X117.728 Y114.840059052 E1.5551
G1 X117.162 Y114.840059052 E1.5634
G1 X120.115 Y117.793059052 E1.6244
G1 X119.431 Y117.675059052 E1.6346
G1 X116.65 Y114.894059052 E1.692
G1 X116.278 Y115.087059052 E1.6982
G1 X118.833 Y117.643059052 E1.751
G1 X118.441 Y117.816059052 E1.7573
G1 X115.938 Y115.313059052 E1.809
G1 X115.617 Y115.558059052 E1.8149
G1 X118.049 Y117.990059052 E1.8652
G1 X117.894 Y118.400059052 E1.8716
G1 X115.364 Y115.871059052 E1.9239
G1 X115.14 Y116.212059052 E1.9298
G1 X117.77 Y118.842059052 E1.9842
G1 X117.694 Y119.332059052 E1.9914
G1 X117.27 Y118.908059052 E2.0002
G1 X117.344 Y119.547059052 E2.0096
G1 X117.655 Y119.859059052 E2.0161
G1 X117.389 Y120.158059052 E2.0219
G1 X117.63 Y120.399059052 E2.0269
G1 X117.385 Y120.720059052 E2.0328
G1 X117.642 Y120.977059052 E2.0381
G1 X117.374 Y121.274059052 E2.0439
G1 X117.657 Y121.557059052 E2.0498
G1 X117.316 Y121.782059052 E2.0558
G1 X117.817 Y122.283059052 E2.0661
G1 X117.213 Y122.245059052 E2.0749
G1 X119.629 Y124.661059052 E2.1249
G1 X119.556 Y125.154059052 E2.1322
G1 X117.079 Y122.677059052 E2.1834
G1 X116.855 Y123.018059052 E2.1893
G1 X119.39 Y125.553059052 E2.2417
G1 X119.159 Y125.888059052 E2.2477
G1 X116.63 Y123.359059052 E2.2999
G1 X116.243 Y123.538059052 E2.3062
G1 X118.87 Y126.165059052 E2.3605
G1 X118.525 Y126.385059052 E2.3665
G1 X115.784 Y123.645059052 E2.4231
G1 X115.517 Y123.943059052 E2.429
G1 X118.123 Y126.550059052 E2.4828
G1 X117.667 Y126.659059052 E2.4897
G1 X115.413 Y124.404059052 E2.5363
G1 X115.436 Y124.993059052 E2.5449
G1 X117.038 Y126.596059052 E2.578
G1 X119.525 Y123.992059052 F7933.3333
G1 X119.115 Y123.581059052 F1075.1724 E2.5865
G92 E0
;LAYER:3
;TYPE:WALL-INNER
G1 X115.341 Y115.341059052 Z0.9 F10200.0
G1 X115.954 Y114.872059052 F1067.2181 E0.0113
G1 X116.525 Y114.576059052 E0.0207
G1 X116.789 Y114.500059052 E0.0247
G1 X118.233 Y114.500059052 E0.0458
G1 X118.497 Y114.576059052 E0.0498
G1 X119.067 Y114.872059052 E0.0592
G1 X119.681 Y115.341059052 E0.0705
G1 X120.134 Y115.934059052 E0.0814
G1 X120.421 Y116.623059052 E0.0923
G1 X120.517 Y117.363059052 E0.1032
G1 X120.435 Y117.997059052 E0.1126
G1 X120.054 Y118.302059052 E0.1197
G1 X119.73 Y118.100059052 E0.1253
G1 X118.987 Y117.947059052 E0.1364
G1 X118.288 Y118.256059052 E0.1476
G1 X118.053 Y119.091059052 E0.1602
G1 X117.967 Y120.252059052 E0.1772
G1 X117.993 Y121.504059052 E0.1956
G1 X118.202 Y122.452059052 E0.2098
G1 X118.683 Y123.183059052 E0.2225
G1 X119.243 Y123.255059052 E0.2308
G1 X119.696 Y123.517059052 E0.2384
G1 X119.901 Y124.009059052 E0.2462
G1 X119.979 Y124.610059052 E0.2551
G1 X119.901 Y125.210059052 E0.2639
G1 X119.666 Y125.774059052 E0.2729
G1 X119.32 Y126.243059052 E0.2814
G1 X118.9 Y126.575059052 E0.2892
G1 X118.484 Y126.793059052 E0.2961
G1 X117.868 Y127.013059052 E0.3056
G1 X117.631 Y127.877059052 E0.3187
G1 X117.391 Y127.877059052 E0.3222
G1 X117.153 Y127.013059052 E0.3353
G1 X116.538 Y126.793059052 E0.3449
G1 X116.121 Y126.575059052 E0.3518
G1 X115.702 Y126.243059052 E0.3596
G1 X115.356 Y125.774059052 E0.3681
G1 X115.121 Y125.210059052 E0.377
G1 X115.043 Y124.610059052 E0.3859
G1 X115.121 Y124.009059052 E0.3947
G1 X115.326 Y123.517059052 E0.4025
G1 X115.779 Y123.255059052 E0.4102
G1 X116.339 Y123.183059052 E0.4184
G1 X116.82 Y122.452059052 E0.4312
G1 X117.029 Y121.504059052 E0.4454
G1 X117.055 Y120.252059052 E0.4637
G1 X116.969 Y119.091059052 E0.4807
G1 X116.734 Y118.256059052 E0.4934
G1 X116.035 Y117.947059052 E0.5046
G1 X115.292 Y118.100059052 E0.5157
G1 X114.967 Y118.302059052 E0.5212
G1 X114.587 Y117.997059052 E0.5284
G1 X114.505 Y117.363059052 E0.5377
G1 X114.601 Y116.623059052 E0.5486
G1 X114.888 Y115.934059052 E0.5595
G1 X115.341 Y115.341059052 E0.5704
;TYPE:WALL-OUTER
G1 X115.055 Y115.055059052 F10200.0
G1 X115.739 Y114.533059052 F1067.2181 E0.583
G1 X116.376 Y114.203059052 E0.5935
G1 X116.732 Y114.100059052 E0.5989
G1 X118.29 Y114.100059052 E0.6217
G1 X118.646 Y114.203059052 E0.6271
G1 X119.283 Y114.533059052 E0.6376
G1 X119.966 Y115.055059052 E0.6502
G1 X120.483 Y115.732059052 E0.6626
G1 X120.811 Y116.518059052 E0.6751
G1 X120.92 Y117.363059052 E0.6875
G1 X120.811 Y118.208059052 E0.7
G1 X120.48 Y119.002059052 E0.7126
G1 X120.371 Y119.176059052 E0.7156
G1 X120.251 Y119.152059052 E0.7173
G1 X120.083 Y118.792059052 E0.7232
G1 X119.579 Y118.477059052 E0.7318
G1 X119.031 Y118.364059052 E0.74
G1 X118.622 Y118.545059052 E0.7466
G1 X118.449 Y119.161059052 E0.7559
G1 X118.367 Y120.262059052 E0.7721
G1 X118.392 Y121.456059052 E0.7895
G1 X118.577 Y122.294059052 E0.802
G1 X118.916 Y122.810059052 E0.8111
G1 X119.374 Y122.869059052 E0.8178
G1 X119.565 Y122.787059052 E0.8209
G1 X119.758 Y122.824059052 E0.8237
G1 X120.013 Y123.239059052 E0.8308
G1 X120.291 Y123.904059052 E0.8414
G1 X120.382 Y124.610059052 E0.8518
G1 X120.291 Y125.315059052 E0.8622
G1 X120.016 Y125.973059052 E0.8726
G1 X119.61 Y126.523059052 E0.8826
G1 X119.119 Y126.912059052 E0.8918
G1 X118.644 Y127.160059052 E0.8996
G1 X118.199 Y127.319059052 E0.9065
G1 X117.936 Y128.277059052 E0.921
G1 X117.748 Y133.132059052 E0.992
G1 X117.825 Y134.304059052 E1.0092
G1 X117.884 Y134.528059052 E1.0126
G1 X117.85 Y134.993059052 E1.0194
G1 X117.74 Y135.389059052 E1.0254
G1 X117.63 Y135.507059052 E1.0278
G1 X117.511 Y135.527059052 E1.0295
G1 X117.392 Y135.507059052 E1.0313
G1 X117.282 Y135.389059052 E1.0337
G1 X117.172 Y134.993059052 E1.0397
G1 X117.138 Y134.528059052 E1.0465
G1 X117.197 Y134.304059052 E1.0499
G1 X117.274 Y133.132059052 E1.067
G1 X117.086 Y128.277059052 E1.1381
G1 X116.823 Y127.319059052 E1.1526
G1 X116.377 Y127.160059052 E1.1595
G1 X115.903 Y126.912059052 E1.1673
G1 X115.412 Y126.523059052 E1.1765
G1 X115.005 Y125.973059052 E1.1865
G1 X114.731 Y125.315059052 E1.1969
G1 X114.64 Y124.610059052 E1.2073
G1 X114.731 Y123.904059052 E1.2177
G1 X115.009 Y123.239059052 E1.2282
G1 X115.263 Y122.824059052 E1.2353
G1 X115.457 Y122.787059052 E1.2382
G1 X115.648 Y122.869059052 E1.2413
G1 X116.106 Y122.810059052 E1.248
G1 X116.445 Y122.294059052 E1.257
G1 X116.63 Y121.456059052 E1.2696
G1 X116.655 Y120.262059052 E1.287
G1 X116.573 Y119.161059052 E1.3032
G1 X116.4 Y118.545059052 E1.3125
G1 X115.99 Y118.364059052 E1.319
G1 X115.443 Y118.477059052 E1.3272
G1 X114.938 Y118.792059052 E1.3359
G1 X114.771 Y119.152059052 E1.3417
G1 X114.651 Y119.176059052 E1.3435
G1 X114.542 Y119.002059052 E1.3465
G1 X114.211 Y118.208059052 E1.3591
G1 X114.102 Y117.363059052 E1.3715
G1 X114.211 Y116.518059052 E1.384
G1 X114.539 Y115.732059052 E1.3964
G1 X115.055 Y115.055059052 E1.4089
;TYPE:FILL
G1 X116.155 Y115.151059052 F10200.0
G1 X115.173 Y116.133059052 F1067.2181 E1.4292
G1 X119.433 Y125.450059052 F10200.0
G1 X118.463 Y126.420059052 F1067.2181 E1.4492
G1 X117.463 Y126.855059052 E1.4652
G1 X119.625 Y124.692059052 E1.5099
G1 X119.579 Y124.172059052 E1.5175
G1 X117.114 Y126.637059052 E1.5685
G1 X116.697 Y126.488059052 E1.5749
G1 X119.428 Y123.758059052 E1.6314
G1 X119.047 Y123.573059052 E1.6376
G1 X116.323 Y126.297059052 E1.6939
G1 X116.005 Y126.049059052 E1.6998
G1 X118.546 Y123.508059052 E1.7523
G1 X118.288 Y123.201059052 E1.7582
G1 X115.751 Y125.737059052 E1.8106
G1 X115.555 Y125.368059052 E1.8167
G1 X118.063 Y122.860059052 E1.8686
G1 X117.863 Y122.494059052 E1.8747
G1 X115.427 Y124.930059052 E1.925
G1 X115.416 Y124.375059052 E1.9331
G1 X117.761 Y122.030059052 E1.9816
G1 X117.659 Y121.567059052 E1.9885
G1 X117.279 Y121.947059052 E1.9964
G1 X117.373 Y121.287059052 E2.0061
G1 X117.643 Y121.017059052 E2.0117
G1 X117.386 Y120.709059052 E2.0176
G1 X117.631 Y120.463059052 E2.0226
G1 X117.388 Y120.141059052 E2.0285
G1 X117.654 Y119.875059052 E2.034
G1 X117.349 Y119.614059052 E2.0399
G1 X117.7 Y119.263059052 E2.0472
G1 X117.309 Y119.088059052 E2.0534
G1 X117.854 Y118.544059052 E2.0647
G1 X117.194 Y118.637059052 E2.0744
G1 X119.789 Y116.043059052 E2.128
G1 X119.544 Y115.722059052 E2.1339
G1 X117.07 Y118.196059052 E2.1851
G1 X116.791 Y117.909059052 E2.1909
G1 X119.256 Y115.444059052 E2.2419
G1 X118.935 Y115.199059052 E2.2478
G1 X118.571 Y114.998059052 E2.2539
G1 X116.399 Y117.736059052 E2.305
G1 X115.273 Y117.730059052 E2.3214
G1 X118.163 Y114.840059052 E2.3812
G1 X117.598 Y114.840059052 E2.3894
G1 X114.874 Y117.564059052 E2.4457
G1 X114.898 Y116.974059052 E2.4544
G1 X117.032 Y114.840059052 E2.4985
G1 X118.692 Y117.706059052 F10200.0
G1 X119.971 Y116.426059052 F1067.2181 E2.5249
G1 X120.108 Y116.855059052 E2.5315
G1 X119.309 Y117.654059052 E2.548
G1 X119.791 Y117.737059052 E2.5552
G1 X120.173 Y117.356059052 E2.5631
G92 E0
;LAYER:4
;TYPE:WALL-INNER
G1 X115.341 Y115.341059052 Z1.1 F10200.0
G1 X115.954 Y114.872059052 F1072.8931 E0.0113
G1 X116.525 Y114.576059052 E0.0207
G1 X116.789 Y114.500059052 E0.0247
G1 X118.233 Y114.500059052 E0.0458
G1 X118.497 Y114.576059052 E0.0498
G1 X119.067 Y114.872059052 E0.0592
G1 X119.681 Y115.341059052 E0.0705
G1 X120.134 Y115.934059052 E0.0814
G1 X120.421 Y116.623059052 E0.0923
G1 X120.517 Y117.363059052 E0.1032
G1 X120.435 Y117.997059052 E0.1125
G1 X120.054 Y118.302059052 E0.1197
G1 X119.73 Y118.100059052 E0.1253
G1 X118.987 Y117.947059052 E0.1363
G1 X118.288 Y118.256059052 E0.1475
G1 X118.053 Y119.091059052 E0.1602
G1 X117.967 Y120.252059052 E0.1772
G1 X117.993 Y121.504059052 E0.1955
G1 X118.202 Y122.452059052 E0.2097
G1 X118.683 Y123.183059052 E0.2225
G1 X119.243 Y123.255059052 E0.2307
G1 X119.696 Y123.517059052 E0.2384
G1 X119.901 Y124.009059052 E0.2462
G1 X119.979 Y124.610059052 E0.255
G1 X119.901 Y125.210059052 E0.2639
G1 X119.666 Y125.774059052 E0.2728
G1 X119.32 Y126.243059052 E0.2813
G1 X118.898 Y126.577059052 E0.2892
G1 X117.889 Y127.031059052 E0.3053
G1 X117.7 Y127.883059052 E0.3181
G1 X117.322 Y127.883059052 E0.3236
G1 X117.133 Y127.031059052 E0.3364
G1 X116.124 Y126.577059052 E0.3526
G1 X115.702 Y126.243059052 E0.3604
G1 X115.356 Y125.774059052 E0.3689
G1 X115.121 Y125.210059052 E0.3779
G1 X115.043 Y124.610059052 E0.3867
G1 X115.121 Y124.009059052 E0.3956
G1 X115.326 Y123.517059052 E0.4033
G1 X115.779 Y123.255059052 E0.411
G1 X116.339 Y123.183059052 E0.4193
G1 X116.82 Y122.452059052 E0.432
G1 X117.029 Y121.504059052 E0.4462
G1 X117.055 Y120.252059052 E0.4645
G1 X116.969 Y119.091059052 E0.4815
G1 X116.734 Y118.256059052 E0.4942
G1 X116.035 Y117.947059052 E0.5054
G1 X115.292 Y118.100059052 E0.5165
G1 X114.967 Y118.302059052 E0.5221
G1 X114.587 Y117.997059052 E0.5292
G1 X114.505 Y117.363059052 E0.5385
G1 X114.601 Y116.623059052 E0.5494
G1 X114.888 Y115.934059052 E0.5603
G1 X115.341 Y115.341059052 E0.5712
;TYPE:WALL-OUTER
G1 X115.055 Y115.055059052 F10200.0
G1 X115.739 Y114.533059052 F1072.8931 E0.5838
G1 X116.376 Y114.203059052 E0.5943
G1 X116.732 Y114.100059052 E0.5997
G1 X118.29 Y114.100059052 E0.6225
G1 X118.646 Y114.203059052 E0.6279
G1 X119.283 Y114.533059052 E0.6384
G1 X119.966 Y115.055059052 E0.651
G1 X120.483 Y115.732059052 E0.6634
G1 X120.811 Y116.518059052 E0.6758
G1 X120.92 Y117.363059052 E0.6883
G1 X120.811 Y118.208059052 E0.7007
G1 X120.48 Y119.002059052 E0.7133
G1 X120.371 Y119.176059052 E0.7163
G1 X120.251 Y119.152059052 E0.7181
G1 X120.083 Y118.792059052 E0.7239
G1 X119.579 Y118.477059052 E0.7326
G1 X119.031 Y118.364059052 E0.7408
G1 X118.622 Y118.545059052 E0.7473
G1 X118.449 Y119.161059052 E0.7567
G1 X118.367 Y120.262059052 E0.7728
G1 X118.392 Y121.456059052 E0.7902
G1 X118.577 Y122.294059052 E0.8028
G1 X118.916 Y122.810059052 E0.8118
G1 X119.374 Y122.869059052 E0.8185
G1 X119.565 Y122.787059052 E0.8216
G1 X119.758 Y122.824059052 E0.8245
G1 X120.013 Y123.239059052 E0.8316
G1 X120.291 Y123.904059052 E0.8421
G1 X120.382 Y124.610059052 E0.8525
G1 X120.291 Y125.315059052 E0.8629
G1 X120.016 Y125.973059052 E0.8733
G1 X119.61 Y126.523059052 E0.8833
G1 X119.118 Y126.913059052 E0.8925
G1 X118.651 Y127.162059052 E0.9002
G1 X118.233 Y127.325059052 E0.9068
G1 X118.022 Y128.283059052 E0.9211
G1 X117.852 Y134.149059052 E1.0069
G1 X117.895 Y134.513059052 E1.0122
G1 X117.851 Y134.991059052 E1.0192
G1 X117.74 Y135.389059052 E1.0253
G1 X117.63 Y135.507059052 E1.0276
G1 X117.511 Y135.527059052 E1.0294
G1 X117.392 Y135.507059052 E1.0312
G1 X117.282 Y135.389059052 E1.0335
G1 X117.171 Y134.991059052 E1.0396
G1 X117.127 Y134.513059052 E1.0466
G1 X117.17 Y134.149059052 E1.0519
G1 X117.0 Y128.283059052 E1.1377
G1 X116.789 Y127.325059052 E1.152
G1 X116.371 Y127.162059052 E1.1586
G1 X115.903 Y126.913059052 E1.1663
G1 X115.412 Y126.523059052 E1.1755
G1 X115.005 Y125.973059052 E1.1855
G1 X114.731 Y125.315059052 E1.1959
G1 X114.64 Y124.610059052 E1.2063
G1 X114.731 Y123.904059052 E1.2167
G1 X115.009 Y123.239059052 E1.2272
G1 X115.263 Y122.824059052 E1.2343
G1 X115.457 Y122.787059052 E1.2372
G1 X115.648 Y122.869059052 E1.2402
G1 X116.106 Y122.810059052 E1.247
G1 X116.445 Y122.294059052 E1.256
G1 X116.63 Y121.456059052 E1.2685
G1 X116.655 Y120.262059052 E1.286
G1 X116.573 Y119.161059052 E1.3021
G1 X116.4 Y118.545059052 E1.3115
G1 X115.99 Y118.364059052 E1.318
G1 X115.443 Y118.477059052 E1.3262
G1 X114.938 Y118.792059052 E1.3349
G1 X114.771 Y119.152059052 E1.3407
G1 X114.651 Y119.176059052 E1.3425
G1 X114.542 Y119.002059052 E1.3455
G1 X114.211 Y118.208059052 E1.3581
G1 X114.102 Y117.363059052 E1.3705
G1 X114.211 Y116.518059052 E1.3829
G1 X114.539 Y115.732059052 E1.3954
G1 X115.055 Y115.055059052 E1.4078
;TYPE:FILL
G1 X115.972 Y117.610059052 F10200.0
G1 X114.974 Y116.612059052 F1072.8931 E1.4285
G1 X114.883 Y117.087059052 E1.4355
G1 X115.489 Y117.693059052 E1.4481
G1 X115.007 Y117.776059052 E1.4552
G1 X114.886 Y117.655059052 E1.4577
G1 X118.337 Y114.884059052 F10200.0
G1 X120.036 Y116.583059052 F1072.8931 E1.4928
G1 X120.163 Y117.275059052 E1.5031
G1 X117.728 Y114.840059052 E1.5534
G1 X117.162 Y114.840059052 E1.5617
G1 X120.115 Y117.793059052 E1.6227
G1 X119.431 Y117.675059052 E1.6329
G1 X116.65 Y114.894059052 E1.6904
G1 X116.278 Y115.087059052 E1.6965
G1 X118.833 Y117.643059052 E1.7493
G1 X118.441 Y117.816059052 E1.7556
G1 X115.938 Y115.313059052 E1.8073
G1 X115.617 Y115.558059052 E1.8132
G1 X118.049 Y117.990059052 E1.8635
G1 X117.894 Y118.400059052 E1.8699
G1 X115.364 Y115.871059052 E1.9222
G1 X115.14 Y116.212059052 E1.9281
G1 X117.05 Y118.122059052 E1.9676
G1 X117.27 Y118.908059052 E1.9795
G1 X117.77 Y118.842059052 E1.9869
G1 X117.694 Y119.332059052 E1.9941
G1 X117.344 Y119.547059052 E2.0002
G1 X117.655 Y119.859059052 E2.0066
G1 X117.389 Y120.158059052 E2.0125
G1 X117.63 Y120.399059052 E2.0174
G1 X117.385 Y120.720059052 E2.0233
G1 X117.642 Y120.977059052 E2.0286
G1 X117.374 Y121.274059052 E2.0345
G1 X117.657 Y121.557059052 E2.0403
G1 X117.316 Y121.782059052 E2.0463
G1 X117.817 Y122.283059052 E2.0567
G1 X117.213 Y122.245059052 E2.0655
G1 X119.629 Y124.661059052 E2.1154
G1 X119.556 Y125.154059052 E2.1227
G1 X117.079 Y122.677059052 E2.1739
G1 X116.855 Y123.018059052 E2.1799
G1 X119.39 Y125.553059052 E2.2322
G1 X119.159 Y125.888059052 E2.2382
G1 X116.63 Y123.359059052 E2.2905
G1 X116.243 Y123.538059052 E2.2967
G1 X118.87 Y126.165059052 E2.351
G1 X118.516 Y126.376059052 E2.357
G1 X115.784 Y123.645059052 E2.4135
G1 X115.517 Y123.943059052 E2.4193
G1 X118.125 Y126.551059052 E2.4732
G1 X117.735 Y126.727059052 E2.4795
G1 X115.413 Y124.404059052 E2.5275
G1 X115.436 Y124.993059052 E2.5361
G1 X117.528 Y127.086059052 E2.5793
G1 X119.525 Y123.992059052 F10200.0
G1 X119.115 Y123.581059052 F1072.8931 E2.5878
G92 E0
;LAYER:5
;TYPE:WALL-INNER
G1 X115.341 Y115.341059052 Z1.3 F10200.0
G1 X115.954 Y114.872059052 F1107.8765 E0.0113
G1 X116.525 Y114.576059052 E0.0207
G1 X116.789 Y114.500059052 E0.0247
G1 X118.233 Y114.500059052 E0.0458
G1 X118.497 Y114.576059052 E0.0498
G1 X119.067 Y114.872059052 E0.0592
G1 X119.681 Y115.341059052 E0.0705
G1 X120.134 Y115.934059052 E0.0814
G1 X120.421 Y116.623059052 E0.0923
G1 X120.517 Y117.363059052 E0.1032
G1 X120.435 Y117.997059052 E0.1125
G1 X120.054 Y118.302059052 E0.1197
G1 X119.73 Y118.100059052 E0.1252
G1 X118.987 Y117.947059052 E0.1363
G1 X118.288 Y118.256059052 E0.1475
G1 X118.053 Y119.091059052 E0.1602
G1 X117.967 Y120.252059052 E0.1772
G1 X117.993 Y121.504059052 E0.1955
G1 X118.202 Y122.452059052 E0.2097
G1 X118.683 Y123.183059052 E0.2224
G1 X119.243 Y123.255059052 E0.2307
G1 X119.696 Y123.517059052 E0.2383
G1 X119.901 Y124.009059052 E0.2461
G1 X119.979 Y124.610059052 E0.255
G1 X119.901 Y125.210059052 E0.2638
G1 X119.666 Y125.774059052 E0.2727
G1 X119.32 Y126.243059052 E0.2813
G1 X118.9 Y126.576059052 E0.2891
G1 X117.934 Y127.084059052 E0.305
G1 X117.734 Y128.278059052 E0.3227
G1 X117.681 Y129.758059052 E0.3444
G1 X117.34 Y129.758059052 E0.3493
G1 X117.288 Y128.278059052 E0.371
G1 X117.088 Y127.084059052 E0.3887
G1 X116.122 Y126.576059052 E0.4046
G1 X115.702 Y126.243059052 E0.4124
G1 X115.356 Y125.774059052 E0.421
G1 X115.121 Y125.210059052 E0.4299
G1 X115.043 Y124.610059052 E0.4387
G1 X115.121 Y124.009059052 E0.4476
G1 X115.326 Y123.517059052 E0.4554
G1 X115.779 Y123.255059052 E0.463
G1 X116.339 Y123.183059052 E0.4713
G1 X116.82 Y122.452059052 E0.484
G1 X117.029 Y121.504059052 E0.4982
G1 X117.055 Y120.252059052 E0.5165
G1 X116.969 Y119.091059052 E0.5335
G1 X116.734 Y118.256059052 E0.5462
G1 X116.035 Y117.947059052 E0.5574
G1 X115.292 Y118.100059052 E0.5685
G1 X114.967 Y118.302059052 E0.5741
G1 X114.587 Y117.997059052 E0.5812
G1 X114.505 Y117.363059052 E0.5905
G1 X114.601 Y116.623059052 E0.6014
G1 X114.888 Y115.934059052 E0.6123
G1 X115.341 Y115.341059052 E0.6232
;TYPE:WALL-OUTER
G1 X115.055 Y115.055059052 F10200.0
G1 X115.739 Y114.533059052 F1107.8765 E0.6358
G1 X116.376 Y114.203059052 E0.6463
G1 X116.732 Y114.100059052 E0.6517
G1 X118.29 Y114.100059052 E0.6745
G1 X118.646 Y114.203059052 E0.6799
G1 X119.283 Y114.533059052 E0.6904
G1 X119.966 Y115.055059052 E0.7029
G1 X120.483 Y115.732059052 E0.7154
G1 X120.811 Y116.518059052 E0.7278
G1 X120.92 Y117.363059052 E0.7403
G1 X120.811 Y118.208059052 E0.7527
G1 X120.48 Y119.002059052 E0.7653
G1 X120.371 Y119.176059052 E0.7683
G1 X120.251 Y119.152059052 E0.7701
G1 X120.083 Y118.792059052 E0.7759
G1 X119.579 Y118.477059052 E0.7846
G1 X119.031 Y118.364059052 E0.7927
G1 X118.622 Y118.545059052 E0.7993
G1 X118.449 Y119.161059052 E0.8086
G1 X118.367 Y120.262059052 E0.8248
G1 X118.392 Y121.456059052 E0.8422
G1 X118.577 Y122.294059052 E0.8547
G1 X118.916 Y122.810059052 E0.8638
G1 X119.374 Y122.869059052 E0.8705
G1 X119.565 Y122.787059052 E0.8735
G1 X119.758 Y122.824059052 E0.8764
G1 X120.013 Y123.239059052 E0.8835
G1 X120.291 Y123.904059052 E0.8941
G1 X120.382 Y124.610059052 E0.9044
G1 X120.291 Y125.315059052 E0.9148
G1 X120.016 Y125.973059052 E0.9253
G1 X119.61 Y126.523059052 E0.9353
G1 X119.119 Y126.912059052 E0.9444
G1 X118.296 Y127.345059052 E0.958
G1 X118.132 Y128.318059052 E0.9724
G1 X117.914 Y134.494059052 E1.0627
G1 X117.852 Y134.988059052 E1.07
G1 X117.74 Y135.389059052 E1.0761
G1 X117.63 Y135.507059052 E1.0784
G1 X117.511 Y135.527059052 E1.0802
G1 X117.392 Y135.507059052 E1.0819
G1 X117.282 Y135.389059052 E1.0843
G1 X117.17 Y134.988059052 E1.0904
G1 X117.108 Y134.494059052 E1.0977
G1 X116.889 Y128.318059052 E1.1879
G1 X116.726 Y127.345059052 E1.2024
G1 X115.903 Y126.912059052 E1.2159
G1 X115.412 Y126.523059052 E1.2251
G1 X115.005 Y125.973059052 E1.2351
G1 X114.731 Y125.315059052 E1.2455
G1 X114.64 Y124.610059052 E1.2559
G1 X114.731 Y123.904059052 E1.2663
G1 X115.009 Y123.239059052 E1.2768
G1 X115.263 Y122.824059052 E1.2839
G1 X115.457 Y122.787059052 E1.2868
G1 X115.648 Y122.869059052 E1.2899
G1 X116.106 Y122.810059052 E1.2966
G1 X116.445 Y122.294059052 E1.3056
G1 X116.63 Y121.456059052 E1.3182
G1 X116.655 Y120.262059052 E1.3356
G1 X116.573 Y119.161059052 E1.3517
G1 X116.4 Y118.545059052 E1.3611
G1 X115.99 Y118.364059052 E1.3676
G1 X115.443 Y118.477059052 E1.3758
G1 X114.938 Y118.792059052 E1.3845
G1 X114.771 Y119.152059052 E1.3903
G1 X114.651 Y119.176059052 E1.3921
G1 X114.542 Y119.002059052 E1.3951
G1 X114.211 Y118.208059052 E1.4077
G1 X114.102 Y117.363059052 E1.4201
G1 X114.211 Y116.518059052 E1.4325
G1 X114.539 Y115.732059052 E1.445
G1 X115.055 Y115.055059052 E1.4574
;TYPE:FILL
G1 X115.173 Y116.133059052 F10200.0
G1 X116.155 Y115.151059052 F1107.8765 E1.4777
G1 X119.433 Y125.450059052 F10200.0
G1 X118.46 Y126.423059052 F1107.8765 E1.4978
G1 X117.404 Y126.913059052 E1.5148
G1 X119.625 Y124.692059052 E1.5607
G1 X119.579 Y124.172059052 E1.5683
G1 X117.064 Y126.687059052 E1.6203
G1 X116.694 Y126.492059052 E1.6264
G1 X119.428 Y123.758059052 E1.6829
G1 X119.047 Y123.573059052 E1.6891
G1 X116.323 Y126.297059052 E1.7454
G1 X116.005 Y126.049059052 E1.7513
G1 X118.546 Y123.508059052 E1.8038
G1 X118.288 Y123.201059052 E1.8097
G1 X115.751 Y125.737059052 E1.8621
G1 X115.555 Y125.368059052 E1.8682
G1 X118.063 Y122.860059052 E1.92
G1 X117.863 Y122.494059052 E1.9261
G1 X115.427 Y124.930059052 E1.9765
G1 X115.416 Y124.375059052 E1.9846
G1 X117.761 Y122.030059052 E2.033
G1 X117.659 Y121.567059052 E2.0399
G1 X117.279 Y121.947059052 E2.0478
G1 X117.373 Y121.287059052 E2.0575
G1 X117.643 Y121.017059052 E2.0631
G1 X117.386 Y120.709059052 E2.069
G1 X117.631 Y120.463059052 E2.074
G1 X117.388 Y120.141059052 E2.0799
G1 X117.654 Y119.875059052 E2.0854
G1 X117.349 Y119.614059052 E2.0913
G1 X117.7 Y119.263059052 E2.0985
G1 X117.309 Y119.088059052 E2.1048
G1 X117.854 Y118.544059052 E2.116
G1 X117.194 Y118.637059052 E2.1258
G1 X119.789 Y116.043059052 E2.1794
G1 X119.544 Y115.722059052 E2.1853
G1 X117.07 Y118.196059052 E2.2364
G1 X116.791 Y117.909059052 E2.2423
G1 X119.256 Y115.444059052 E2.2932
G1 X118.935 Y115.199059052 E2.2991
G1 X116.399 Y117.736059052 E2.3515
G1 X115.957 Y117.612059052 E2.3582
G1 X118.571 Y114.998059052 E2.4122
G1 X118.163 Y114.840059052 E2.4186
G1 X115.273 Y117.730059052 E2.4783
G1 X114.874 Y117.564059052 E2.4847
G1 X117.598 Y114.840059052 E2.5409
G1 X117.032 Y114.840059052 E2.5492
G1 X114.898 Y116.974059052 E2.5933
G1 X118.692 Y117.706059052 F10200.0
G1 X119.971 Y116.426059052 F1107.8765 E2.6197
G1 X120.108 Y116.855059052 E2.6263
G1 X119.309 Y117.654059052 E2.6428
G1 X119.791 Y117.737059052 E2.65
G1 X120.173 Y117.356059052 E2.6579
G92 E0
;LAYER:6
;TYPE:WALL-INNER
G1 X117.411 Y115.837059052 Z1.5 F10200.0
G1 X117.611 Y115.837059052 F600.0 E0.0011
G1 X117.723 Y116.149059052 E0.0029
G1 X117.976 Y117.875059052 E0.0122
G1 X117.679 Y118.622059052 E0.0166
G1 X117.343 Y118.622059052 E0.0184
G1 X117.24 Y118.275059052 E0.0203
G1 X117.112 Y118.093059052 E0.0215
G1 X117.043 Y117.896059052 E0.0226
G1 X117.299 Y116.149059052 E0.0321
G1 X117.411 Y115.837059052 E0.0339
;TYPE:WALL-INNER
G1 X117.668 Y124.743059052 F10200.0
G1 X117.723 Y125.298059052 F600.0 E0.0369
G1 X117.65 Y125.944059052 E0.0404
G1 X117.37 Y125.979059052 E0.0419
G1 X117.305 Y125.419059052 E0.045
G1 X117.364 Y124.779059052 E0.0484
G1 X117.668 Y124.743059052 E0.0501
;TYPE:WALL-OUTER
G1 X118.066 Y124.703059052 F10200.0
G1 X118.125 Y125.301059052 F600.0 E0.0533
G1 X117.868 Y127.574059052 E0.0656
G1 X117.798 Y127.856059052 E0.0672
G1 X117.721 Y127.896059052 E0.0676
G1 X117.301 Y127.896059052 E0.0699
G1 X117.224 Y127.856059052 E0.0704
G1 X117.153 Y127.573059052 E0.0719
G1 X116.903 Y125.424059052 E0.0836
G1 X117.12 Y123.053059052 E0.0964
G1 X117.121 Y120.122059052 E0.1121
G1 X117.044 Y119.022059052 E0.1181
G1 X116.875 Y118.451059052 E0.1213
G1 X116.753 Y118.277059052 E0.1224
G1 X116.642 Y118.165059052 E0.1233
G1 X116.635 Y117.943059052 E0.1245
G1 X116.506 Y117.839059052 E0.1254
G1 X116.751 Y116.893059052 E0.1306
G1 X116.911 Y116.043059052 E0.1353
G1 X117.13 Y115.437059052 E0.1387
G1 X117.371 Y115.055059052 E0.1412
G1 X117.442 Y115.003059052 E0.1416
G1 X117.58 Y115.003059052 E0.1424
G1 X117.651 Y115.055059052 E0.1429
G1 X117.891 Y115.437059052 E0.1453
G1 X118.11 Y116.043059052 E0.1488
G1 X118.27 Y116.893059052 E0.1534
G1 X118.516 Y117.839059052 E0.1587
G1 X118.386 Y117.943059052 E0.1596
G1 X118.387 Y118.146059052 E0.1606
G1 X118.147 Y118.451059052 E0.1627
G1 X117.978 Y119.021059052 E0.1659
G1 X117.901 Y120.122059052 E0.1719
G1 X117.902 Y123.054059052 E0.1876
G1 X118.066 Y124.703059052 E0.1966
G92 E0
;LAYER:7
;TYPE:WALL-INNER
G1 X117.325 Y117.180059052 Z1.7 F10200.0
G1 X117.697 Y117.180059052 F600.0 E0.0013
G1 X117.75 Y117.344059052 E0.002
G1 X117.77 Y118.013059052 E0.0044
G1 X117.251 Y118.013059052 E0.0062
G1 X117.272 Y117.344059052 E0.0086
G1 X117.325 Y117.180059052 E0.0093
;TYPE:WALL-OUTER
G1 X116.944 Y117.057059052 F10200.0
G1 X117.193 Y116.283059052 F600.0 E0.0122
G1 X117.369 Y115.499059052 E0.0151
G1 X117.408 Y115.467059052 E0.0153
G1 X117.614 Y115.467059052 E0.016
G1 X117.652 Y115.499059052 E0.0162
G1 X117.829 Y116.283059052 E0.0191
G1 X118.148 Y117.276059052 E0.0228
G1 X118.16 Y117.723059052 E0.0244
G1 X118.227 Y118.015059052 E0.0255
G1 X118.222 Y118.082059052 E0.0258
G1 X118.177 Y118.211059052 E0.0262
G1 X118.053 Y118.413059052 E0.0271
G1 X117.909 Y118.989059052 E0.0292
G1 X117.855 Y125.690059052 E0.0534
G1 X117.702 Y125.936059052 E0.0544
G1 X117.32 Y125.936059052 E0.0558
G1 X117.167 Y125.690059052 E0.0568
G1 X117.113 Y118.989059052 E0.0809
G1 X116.969 Y118.413059052 E0.0831
G1 X116.845 Y118.211059052 E0.0839
G1 X116.8 Y118.082059052 E0.0844
G1 X116.795 Y118.015059052 E0.0846
G1 X116.862 Y117.723059052 E0.0857
G1 X116.873 Y117.276059052 E0.0873
G1 X116.944 Y117.057059052 E0.0882
G92 E0
;LAYER:8
;TYPE:WALL-OUTER
G1 X117.369 Y116.141059052 Z1.9 F10200.0
G1 X117.653 Y116.141059052 F600.0 E0.001
G1 X117.764 Y116.265059052 E0.0016
G1 X118.16 Y118.079059052 E0.0082
G1 X118.143 Y118.193059052 E0.0086
G1 X118.04 Y118.403059052 E0.0094
G1 X117.921 Y118.971059052 E0.0115
G1 X117.857 Y123.729059052 E0.0284
G1 X117.688 Y124.200059052 E0.0302
G1 X117.334 Y124.200059052 E0.0315
G1 X117.165 Y123.729059052 E0.0332
G1 X117.101 Y118.971059052 E0.0501
G1 X116.982 Y118.403059052 E0.0522
G1 X116.879 Y118.193059052 E0.053
G1 X116.862 Y118.079059052 E0.0534
G1 X117.258 Y116.265059052 E0.06
G1 X117.369 Y116.141059052 E0.0606
;TYPE:FILL
G1 X117.477 Y116.852059052 F10200.0
G1 X117.563 Y116.938059052 F600.0 E0.0611
G1 X117.376 Y117.317059052 E0.0626
G1 X117.721 Y117.662059052 E0.0643
G1 X117.275 Y117.781059052 E0.066
G1 X117.739 Y118.245059052 E0.0683
G1 X117.329 Y118.401059052 E0.0698
G1 X117.63 Y118.702059052 E0.0714
G1 X117.443 Y119.081059052 E0.0729
G1 X117.577 Y119.215059052 E0.0735
G1 X117.451 Y119.654059052 E0.0752
G1 X117.57 Y119.773059052 E0.0758
G1 X117.458 Y120.227059052 E0.0774
G1 X117.562 Y120.331059052 E0.0779
G1 X117.466 Y120.801059052 E0.0796
G1 X117.555 Y120.890059052 E0.0801
G1 X117.474 Y121.374059052 E0.0818
G1 X117.547 Y121.448059052 E0.0822
G1 X117.481 Y121.947059052 E0.084
G1 X117.54 Y122.006059052 E0.0843
G1 X117.489 Y122.521059052 E0.0861
G1 X117.532 Y122.564059052 E0.0863
G92 E0
;LAYER:9
;TYPE:WALL-OUTER
G1 X117.319 Y116.827059052 Z2.1 F10200.0
G1 X117.702 Y116.827059052 F600.0 E0.001
G1 X117.879 Y117.042059052 E0.0018
G1 X118.105 Y118.141059052 E0.0047
G1 X118.034 Y118.333059052 E0.0053
G1 X117.928 Y118.975059052 E0.007
G1 X117.883 Y121.749059052 E0.0144
G1 X117.693 Y122.462059052 E0.0163
G1 X117.328 Y122.462059052 E0.0173
G1 X117.138 Y121.749059052 E0.0193
G1 X117.094 Y118.975059052 E0.0266
G1 X116.987 Y118.333059052 E0.0283
G1 X116.917 Y118.141059052 E0.0289
G1 X117.143 Y117.042059052 E0.0319
G1 X117.319 Y116.827059052 E0.0326
;TYPE:FILL
G1 X117.529 Y121.697059052 F10200.0
G1 X117.494 Y121.732059052 F600.0 E0.0327
G1 X117.482 Y121.178059052 E0.0342
G1 X117.541 Y121.119059052 E0.0344
G1 X117.47 Y120.625059052 E0.0358
G1 X117.554 Y120.540059052 E0.0361
G1 X117.458 Y120.071059052 E0.0373
G1 X117.566 Y119.962059052 E0.0377
G1 X117.446 Y119.517059052 E0.039
G1 X117.579 Y119.384059052 E0.0395
G1 X117.434 Y118.964059052 E0.0407
G1 X117.622 Y118.775059052 E0.0414
G1 X117.343 Y118.489059052 E0.0424
G1 X117.746 Y118.085059052 E0.0439
G1 X117.3 Y117.966059052 E0.0452
G1 X117.65 Y117.616059052 E0.0465
G1 X117.446 Y117.254059052 E0.0476
G1 X117.534 Y117.167059052 E0.0479
G92 E0
;LAYER:10
;TYPE:WALL-OUTER
G1 X117.259 Y117.511059052 Z2.3 F10200.0
G1 X117.763 Y117.511059052 F600.0 E0.0007
G1 X118.002 Y117.826059052 E0.0013
G1 X118.054 Y118.074059052 E0.0017
G1 X118.053 Y118.176059052 E0.0018
G1 X118.033 Y118.222059052 E0.0019
G1 X117.916 Y119.736059052 E0.0042
G1 X117.702 Y120.724059052 E0.0057
G1 X117.32 Y120.724059052 E0.0062
G1 X117.105 Y119.736059052 E0.0077
G1 X116.989 Y118.222059052 E0.0099
G1 X116.969 Y118.176059052 E0.01
G1 X116.968 Y118.074059052 E0.0102
G1 X117.02 Y117.826059052 E0.0105
G1 X117.259 Y117.511059052 E0.0111
;TYPE:FILL
G1 X117.392 Y117.899059052 F10200.0
G1 X117.698 Y118.204059052 F600.0 E0.0118
G1 X117.344 Y118.416059052 E0.0124
G1 X117.649 Y118.721059052 E0.013
G1 X117.403 Y119.041059052 E0.0136
G1 X117.6 Y119.238059052 E0.014
G1 X117.462 Y119.665059052 E0.0147
G1 X117.552 Y119.755059052 E0.0149
G92 E0
M107
;TYPE:CUSTOM
;Move to next object on the platform. clear_z is the minimal z height we need to make sure we do not hit any objects.
G92 E0
G91                                    ;relative positioning
G1 E-1 F300                            ;retract the filament a bit before lifting the nozzle, to release some of the pressure
G1 Z+0.5 E-5 F10200           ;move Z up a bit and retract filament even more
G90                                    ;absolute positioning
G1 Z7.33319735527 F180
G92 E0
G1 X?machine_center_x? Y?machine_center_y? F10200
G1 F200 E5
G92 E0;PRINTNR:2
;LAYER:0
;TYPE:SKIRT
G1 X80.2621944275 Y72.837 Z0.3 F10200.0
G1 X80.7831944275 Y80.038 F1800.0 E0.1583
G1 X81.0481944275 Y81.777 E0.1968
G1 X83.2921944275 Y90.675 E0.398
G1 X83.7591944275 Y92.352 E0.4362
G1 X84.9371944275 Y94.049 E0.4815
G1 X88.4141944275 Y95.096 E0.5611
G1 X91.0851944275 Y92.831 E0.6379
G1 X91.6831944275 Y90.687 E0.6866
G1 X93.8971944275 Y81.997 E0.8832
G1 X94.1941944275 Y80.038 E0.9267
G1 X94.7161944275 Y72.839 E1.0849
G1 X94.5251944275 Y71.067 E1.124
G1 X93.5741944275 Y68.884 E1.1762
G1 X92.3851944275 Y67.467 E1.2167
G1 X90.3471944275 Y66.156 E1.2699
G1 X88.9891944275 Y65.702 E1.3012
G1 X85.1691944275 Y65.937 E1.3851
G1 X83.6001944275 Y66.722 E1.4236
G1 X82.1901944275 Y67.888 E1.4637
G1 X81.2161944275 Y69.163 E1.4989
G1 X80.4521944275 Y71.084 E1.5442
G1 X80.2621944275 Y72.837 E1.5829
G1 X80.6641944275 Y72.833 F10200.0
G1 X81.1871944275 Y80.034 F1800.0 E1.7411
G1 X81.4361944275 Y81.669 E1.7774
G1 X83.6991944275 Y90.645 E1.9803
G1 X84.1261944275 Y92.18 E2.0153
G1 X85.1861944275 Y93.707 E2.056
G1 X88.3211944275 Y94.651 E2.1278
G1 X90.7331944275 Y92.605 E2.1971
G1 X91.2761944275 Y90.655 E2.2415
G1 X93.5121944275 Y81.864 E2.4403
G1 X93.7911944275 Y80.034 E2.4809
G1 X94.3131944275 Y72.834 E2.6392
G1 X94.1341944275 Y71.171 E2.6758
G1 X93.2311944275 Y69.097 E2.7254
G1 X92.1171944275 Y67.771 E2.7634
G1 X90.1731944275 Y66.519 E2.8141
G1 X88.9221944275 Y66.101 E2.843
G1 X85.3031944275 Y66.317 E2.9225
G1 X83.8201944275 Y67.059 E2.9588
G1 X82.4801944275 Y68.167 E2.9969
G1 X81.5671944275 Y69.362 E3.0299
G1 X80.8441944275 Y71.181 E3.0728
G1 X80.6641944275 Y72.833 E3.1092
G1 X88.5381944275 Y72.833 F10200.0
G1 X85.9001944275 Y81.532
G1 X87.4161944275 Y86.119 F3400.0
G1 X87.4151944275 Y86.052 F1800.0 E3.1107
G1 X87.2421944275 Y83.634 E3.1638
G1 X86.8821944275 Y82.679 E3.1862
G1 X86.3711944275 Y82.527 E3.1979
G1 X85.8791944275 Y82.281 E3.2099
G1 X85.3901944275 Y81.893 E3.2236
G1 X84.9831944275 Y81.343 E3.2386
G1 X84.7091944275 Y80.685 E3.2543
G1 X84.6181944275 Y79.98 E3.2699
G1 X84.7091944275 Y79.274 E3.2854
G1 X84.9871944275 Y78.609 E3.3013
G1 X85.2411944275 Y78.194 E3.3119
G1 X85.4351944275 Y78.157 E3.3162
G1 X85.6261944275 Y78.239 E3.3208
G1 X86.0841944275 Y78.18 E3.3309
G1 X86.4231944275 Y77.664 E3.3444
G1 X86.6081944275 Y76.826 E3.3633
G1 X86.6331944275 Y75.632 E3.3894
G1 X86.5511944275 Y74.531 E3.4136
G1 X86.3781944275 Y73.915 E3.4277
G1 X85.9681944275 Y73.734 E3.4375
G1 X85.4211944275 Y73.847 E3.4497
G1 X84.9161944275 Y74.162 E3.4628
G1 X84.7491944275 Y74.522 E3.4715
G1 X84.6291944275 Y74.546 E3.4742
G1 X84.5201944275 Y74.372 E3.4787
G1 X84.1891944275 Y73.578 E3.4975
G1 X84.0801944275 Y72.733 E3.5162
G1 X84.1891944275 Y71.888 E3.5349
G1 X84.5171944275 Y71.102 E3.5535
G1 X85.0331944275 Y70.425 E3.5722
G1 X85.7171944275 Y69.903 E3.5911
G1 X86.3541944275 Y69.573 E3.6068
G1 X86.7101944275 Y69.47 E3.6149
G1 X88.2681944275 Y69.47 E3.6491
G1 X88.6241944275 Y69.573 E3.6572
G1 X89.2611944275 Y69.903 E3.6729
G1 X89.9441944275 Y70.425 E3.6918
G1 X90.4611944275 Y71.102 E3.7105
G1 X90.7891944275 Y71.888 E3.7291
G1 X90.8981944275 Y72.733 E3.7478
G1 X90.7891944275 Y73.578 E3.7665
G1 X90.4581944275 Y74.372 E3.7853
G1 X90.3491944275 Y74.546 E3.7898
G1 X90.2291944275 Y74.522 E3.7925
G1 X90.0611944275 Y74.162 E3.8012
G1 X89.5571944275 Y73.847 E3.8143
G1 X89.0091944275 Y73.734 E3.8265
G1 X88.6001944275 Y73.915 E3.8363
G1 X88.4271944275 Y74.531 E3.8504
G1 X88.3451944275 Y75.632 E3.8746
G1 X88.3701944275 Y76.826 E3.9007
G1 X88.5551944275 Y77.664 E3.9196
G1 X88.8941944275 Y78.18 E3.9331
G1 X89.3521944275 Y78.239 E3.9432
G1 X89.5431944275 Y78.157 E3.9478
G1 X89.7361944275 Y78.194 E3.9521
G1 X89.9911944275 Y78.609 E3.9627
G1 X90.2691944275 Y79.274 E3.9785
G1 X90.3601944275 Y79.98 E3.9941
G1 X90.2691944275 Y80.685 E4.0097
G1 X89.9941944275 Y81.343 E4.0254
G1 X89.5881944275 Y81.893 E4.0404
G1 X89.0981944275 Y82.281 E4.0541
G1 X88.6071944275 Y82.527 E4.0661
G1 X88.0961944275 Y82.679 E4.0778
G1 X87.7361944275 Y83.634 E4.1002
G1 X87.5631944275 Y86.052 E4.1533
G1 X87.5461944275 Y88.513 E4.2073
G1 X87.7001944275 Y89.563 E4.2305
G1 X87.8411944275 Y89.915 E4.2388
G1 X87.8271944275 Y90.367 E4.2488
G1 X87.7181944275 Y90.759 E4.2577
G1 X87.6081944275 Y90.877 E4.2612
G1 X87.4891944275 Y90.897 E4.2639
G1 X87.3701944275 Y90.877 E4.2665
G1 X87.2601944275 Y90.759 E4.27
G1 X87.1511944275 Y90.367 E4.279
G1 X87.1371944275 Y89.915 E4.2889
G1 X87.2781944275 Y89.563 E4.2972
G1 X87.4321944275 Y88.513 E4.3204
G1 X87.4311944275 Y88.455 E4.3217
;TYPE:WALL-INNER
G1 X87.3391944275 Y82.757 F3400.0
G1 X87.1871944275 Y82.353 F1800.0 E4.3312
G1 X86.5181944275 Y82.154 E4.3465
G1 X86.0961944275 Y81.942 E4.3568
G1 X85.6801944275 Y81.613 E4.3685
G1 X85.3341944275 Y81.144 E4.3812
G1 X85.0991944275 Y80.58 E4.3946
G1 X85.0211944275 Y79.98 E4.4079
G1 X85.0991944275 Y79.379 E4.4212
G1 X85.3041944275 Y78.887 E4.4329
G1 X85.7571944275 Y78.625 E4.4443
G1 X86.3171944275 Y78.553 E4.4567
G1 X86.7981944275 Y77.822 E4.4759
G1 X87.0071944275 Y76.874 E4.4972
G1 X87.0331944275 Y75.622 E4.5246
G1 X86.9471944275 Y74.461 E4.5501
G1 X86.7121944275 Y73.626 E4.5692
G1 X86.0131944275 Y73.317 E4.5859
G1 X85.2701944275 Y73.47 E4.6025
G1 X84.9451944275 Y73.672 E4.6109
G1 X84.5651944275 Y73.367 E4.6216
G1 X84.4831944275 Y72.733 E4.6356
G1 X84.5791944275 Y71.993 E4.652
G1 X84.8661944275 Y71.304 E4.6684
G1 X85.3191944275 Y70.711 E4.6847
G1 X85.9321944275 Y70.242 E4.7016
G1 X86.5031944275 Y69.946 E4.7157
G1 X86.7671944275 Y69.87 E4.7218
G1 X88.2111944275 Y69.87 E4.7534
G1 X88.4751944275 Y69.946 E4.7594
G1 X89.0451944275 Y70.242 E4.7735
G1 X89.6591944275 Y70.711 E4.7904
G1 X90.1121944275 Y71.304 E4.8068
G1 X90.3991944275 Y71.993 E4.8232
G1 X90.4951944275 Y72.733 E4.8395
G1 X90.4131944275 Y73.367 E4.8535
G1 X90.0321944275 Y73.672 E4.8642
G1 X89.7081944275 Y73.47 E4.8726
G1 X88.9651944275 Y73.317 E4.8893
G1 X88.2661944275 Y73.626 E4.906
G1 X88.0311944275 Y74.461 E4.925
G1 X87.9451944275 Y75.622 E4.9505
G1 X87.9711944275 Y76.874 E4.978
G1 X88.1801944275 Y77.822 E4.9993
G1 X88.6611944275 Y78.553 E5.0185
G1 X89.2211944275 Y78.625 E5.0308
G1 X89.6741944275 Y78.887 E5.0423
G1 X89.8791944275 Y79.379 E5.054
G1 X89.9571944275 Y79.98 E5.0673
G1 X89.8791944275 Y80.58 E5.0805
G1 X89.6441944275 Y81.144 E5.0939
G1 X89.2981944275 Y81.613 E5.1067
